;FLAVOR:Marlin
;TIME:5748
;Filament used: 2.01617m
;Layer height: 0.15
;MINX:83.208
;MINY:83.208
;MINZ:0.2
;MAXX:167.084
;MAXY:149.499
;MAXZ:8
;Generated with Cura_SteamEngine 4.8.0
M140 S60
M105
M190 S60
M104 S195
M105
M109 S195
M82 ;absolute extrusion mode
G28 ;Home
G1 Z50 F6000 ;Move the platform down 15mm
;Prime the extruder
G92 E0
G1 F200 E3
G92 E0
G92 E0
G92 E0
G1 F1500 E-6.5
;LAYER_COUNT:53
;LAYER:0
M107 P1
G0 F3000 X113.938 Y113.938 Z0.2
;TYPE:SKIRT
G1 F1500 E0
G1 F1200 X113.938 Y118.769 E0.13055
G1 X118.769 Y118.769 E0.2611
G1 X118.769 Y113.938 E0.39166
G1 X113.938 Y113.938 E0.52221
G0 F3000 X113.613 Y113.613
G1 F1200 X113.613 Y119.094 E0.67033
G1 X119.094 Y119.094 E0.81844
G1 X119.094 Y113.613 E0.96656
G1 X113.613 Y113.613 E1.11468
G0 F3000 X113.288 Y113.288
G1 F1200 X113.288 Y119.419 E1.28036
G1 X119.419 Y119.419 E1.44605
G1 X119.419 Y113.288 E1.61173
G1 X113.288 Y113.288 E1.77741
G0 F3000 X112.963 Y112.963
G1 F1200 X112.963 Y119.744 E1.96066
G1 X119.744 Y119.744 E2.14391
G1 X119.744 Y112.963 E2.32716
G1 X112.963 Y112.963 E2.51041
G0 F3000 X112.638 Y112.638
G1 F1200 X112.638 Y120.069 E2.71122
G1 X120.069 Y120.069 E2.91204
G1 X120.069 Y112.638 E3.11285
G1 X112.638 Y112.638 E3.31367
G0 F3000 X112.313 Y112.313
G1 F1200 X112.313 Y120.394 E3.53205
G1 X120.394 Y120.394 E3.75043
G1 X120.394 Y112.313 E3.96881
G1 X112.313 Y112.313 E4.18718
G0 F3000 X111.988 Y111.988
G1 F1200 X111.988 Y120.719 E4.42313
G1 X120.719 Y120.719 E4.65908
G1 X120.719 Y111.988 E4.89502
G1 X111.988 Y111.988 E5.13097
G0 F3000 X111.663 Y111.663
G1 F1200 X111.663 Y121.044 E5.38448
G1 X121.044 Y121.044 E5.63799
G1 X121.044 Y111.663 E5.8915
G1 X111.663 Y111.663 E6.14501
G0 F3000 X111.338 Y111.338
G1 F1200 X111.338 Y121.369 E6.41609
G1 X121.369 Y121.369 E6.68716
G1 X121.369 Y111.338 E6.95824
G1 X111.338 Y111.338 E7.22931
G0 F3000 X111.013 Y111.013
G1 F1200 X111.013 Y121.694 E7.51796
G1 X121.694 Y121.694 E7.8066
G1 X121.694 Y111.013 E8.09524
G1 X111.013 Y111.013 E8.38388
G0 F3000 X110.688 Y110.688
G1 F1200 X110.688 Y122.019 E8.69009
G1 X122.019 Y122.019 E8.9963
G1 X122.019 Y110.688 E9.3025
G1 X110.688 Y110.688 E9.60871
G0 F3000 X110.363 Y110.363
G1 F1200 X110.363 Y122.344 E9.93248
G1 X122.344 Y122.344 E10.25626
G1 X122.344 Y110.363 E10.58003
G1 X110.363 Y110.363 E10.9038
G0 F3000 X110.038 Y110.038
G1 F1200 X110.038 Y122.669 E11.24514
G1 X122.669 Y122.669 E11.58648
G1 X122.669 Y110.038 E11.92782
G1 X110.038 Y110.038 E12.26916
G0 F3000 X109.713 Y109.713
G1 F1200 X109.713 Y122.994 E12.62806
G1 X122.994 Y122.994 E12.98696
G1 X122.994 Y109.713 E13.34587
G1 X109.713 Y109.713 E13.70477
G0 F3000 X109.388 Y109.388
G1 F1200 X109.388 Y123.319 E14.08124
G1 X123.319 Y123.319 E14.45771
G1 X123.319 Y109.388 E14.83418
G1 X109.388 Y109.388 E15.21065
G0 F3000 X109.063 Y109.063
G1 F1200 X109.063 Y123.644 E15.60468
G1 X123.644 Y123.644 E15.99872
G1 X123.644 Y109.063 E16.39275
G1 X109.063 Y109.063 E16.78679
G0 F3000 X108.738 Y108.738
G1 F1200 X108.738 Y123.969 E17.19839
G1 X123.969 Y123.969 E17.60999
G1 X123.969 Y108.738 E18.02159
G1 X108.738 Y108.738 E18.43319
G0 F3000 X108.501 Y108.413
G1 F1200 X108.413 Y108.501 E18.43655
G1 X108.413 Y124.294 E18.86334
G1 X124.206 Y124.294 E19.29013
G1 X124.294 Y124.206 E19.29349
G1 X124.294 Y108.413 E19.72028
G1 X108.501 Y108.413 E20.14707
G0 F3000 X108.366 Y108.088
G1 F1200 X108.088 Y108.366 E20.15769
G1 X108.088 Y124.619 E20.59691
G1 X124.341 Y124.619 E21.03613
G1 X124.619 Y124.341 E21.04675
G1 X124.619 Y108.088 E21.48597
G1 X108.366 Y108.088 E21.92519
G0 F3000 X108.231 Y107.763
G1 F1200 X107.763 Y108.231 E21.94308
G1 X107.763 Y124.944 E22.39473
G1 X124.476 Y124.944 E22.84638
G1 X124.944 Y124.476 E22.86426
G1 X124.944 Y107.763 E23.31591
G1 X108.231 Y107.763 E23.76756
G0 F3000 X108.096 Y107.438
G1 F1200 X107.438 Y108.096 E23.79271
G1 X107.438 Y125.269 E24.25679
G1 X124.611 Y125.269 E24.72087
G1 X125.269 Y124.611 E24.74602
G1 X125.269 Y107.438 E25.2101
G1 X108.096 Y107.438 E25.67418
G0 F3000 X107.963 Y107.113
G1 F1200 X107.113 Y107.963 E25.70667
G1 X107.113 Y125.594 E26.18312
G1 X124.744 Y125.594 E26.65958
G1 X125.594 Y124.744 E26.69207
G1 X125.594 Y107.113 E27.16852
G1 X107.963 Y107.113 E27.64498
G0 F3000 X107.828 Y106.788
G1 F1200 X106.788 Y107.828 E27.68473
G1 X106.788 Y125.88 E28.17256
G1 X106.781 Y125.923 E28.17374
G1 X106.827 Y125.919 E28.17499
G1 X124.879 Y125.919 E28.66282
G1 X125.919 Y124.879 E28.70257
G1 X125.919 Y106.827 E29.1904
G1 X125.926 Y106.784 E29.19158
G1 X125.88 Y106.788 E29.19283
G1 X107.828 Y106.788 E29.68066
G0 F3000 X107.693 Y106.463
G1 F1200 X106.463 Y107.693 E29.72767
G1 X106.463 Y125.88 E30.21915
G1 X106.423 Y126.073 E30.22448
G1 X106.225 Y126.32 E30.23303
G1 X106.061 Y126.428 E30.23834
G1 X105.88 Y126.463 E30.24332
G1 X104.12 Y126.463 E30.29088
G1 X103.927 Y126.423 E30.29621
G1 X103.68 Y126.225 E30.30477
G1 X103.572 Y126.061 E30.31007
G1 X103.537 Y125.88 E30.31505
G1 X103.537 Y104.12 E30.90309
G1 X103.577 Y103.927 E30.90842
G1 X103.775 Y103.68 E30.91697
G1 X103.939 Y103.572 E30.92228
G1 X104.12 Y103.537 E30.92726
G1 X125.88 Y103.537 E31.5153
G1 X126.073 Y103.577 E31.52063
G1 X126.32 Y103.775 E31.52918
G1 X126.428 Y103.939 E31.53449
G1 X126.463 Y104.12 E31.53947
G1 X126.463 Y105.88 E31.58703
G1 X126.423 Y106.073 E31.59236
G1 X126.225 Y106.32 E31.60092
G1 X126.061 Y106.428 E31.60622
G1 X125.88 Y106.463 E31.6112
G1 X107.693 Y106.463 E32.10269
G0 F3000 X107.558 Y106.138
G1 F1200 X106.138 Y107.558 E32.15696
G1 X106.138 Y125.88 E32.65209
G1 X106.09 Y125.995 E32.65545
G1 X105.995 Y126.09 E32.65909
G1 X105.88 Y126.138 E32.66245
G1 X104.12 Y126.138 E32.71001
G1 X104.005 Y126.09 E32.71338
G1 X103.91 Y125.995 E32.71701
G1 X103.862 Y125.88 E32.72038
G1 X103.862 Y104.12 E33.30842
G1 X103.91 Y104.005 E33.31179
G1 X104.005 Y103.91 E33.31542
G1 X104.12 Y103.862 E33.31879
G1 X125.88 Y103.862 E33.90682
G1 X125.995 Y103.91 E33.91019
G1 X126.09 Y104.005 E33.91382
G1 X126.138 Y104.12 E33.91719
G1 X126.138 Y105.88 E33.96475
G1 X126.09 Y105.995 E33.96812
G1 X125.995 Y106.09 E33.97175
G1 X125.88 Y106.138 E33.97512
G1 X107.558 Y106.138 E34.47025
G1 F1500 E27.97025
G0 F3000 X103.212 Y104.12
G1 F1500 E34.47025
G1 F1200 X103.252 Y103.869 E34.47712
G1 X103.45 Y103.545 E34.48738
G1 X103.751 Y103.301 E34.49785
G1 X104.12 Y103.212 E34.50811
G1 X125.88 Y103.212 E35.09615
G1 X126.131 Y103.252 E35.10302
G1 X126.455 Y103.45 E35.11328
G1 X126.699 Y103.751 E35.12375
G1 X126.788 Y104.12 E35.13401
G1 X126.788 Y105.88 E35.18157
G1 X126.781 Y105.923 E35.18275
G1 X126.827 Y105.919 E35.18399
G1 X128.587 Y105.919 E35.23156
G1 X128.838 Y105.959 E35.23842
G1 X129.162 Y106.157 E35.24869
G1 X129.406 Y106.458 E35.25916
G1 X129.495 Y106.827 E35.26941
G1 X129.495 Y128.587 E35.85745
G1 X129.455 Y128.838 E35.86432
G1 X129.257 Y129.162 E35.87458
G1 X128.956 Y129.406 E35.88505
G1 X128.587 Y129.495 E35.89531
G1 X106.827 Y129.495 E36.48335
G1 X106.576 Y129.455 E36.49022
G1 X106.252 Y129.257 E36.50048
G1 X106.008 Y128.956 E36.51095
G1 X105.919 Y128.587 E36.52121
G1 X105.919 Y126.827 E36.56877
G1 X105.926 Y126.784 E36.56995
G1 X105.88 Y126.788 E36.5712
G1 X104.12 Y126.788 E36.61876
G1 X103.869 Y126.748 E36.62563
G1 X103.545 Y126.55 E36.63589
G1 X103.301 Y126.249 E36.64636
G1 X103.212 Y125.88 E36.65662
G1 X103.212 Y104.12 E37.24466
G0 F3000 X102.887 Y104.12
G1 F1200 X102.927 Y103.822 E37.25278
G1 X103.044 Y103.544 E37.26093
G1 X103.315 Y103.22 E37.27235
G1 X103.554 Y103.037 E37.28048
G1 X103.833 Y102.924 E37.28862
G1 X104.12 Y102.887 E37.29644
G1 X125.88 Y102.887 E37.88448
G1 X126.178 Y102.927 E37.8926
G1 X126.456 Y103.044 E37.90075
G1 X126.78 Y103.315 E37.91217
G1 X126.963 Y103.554 E37.9203
G1 X127.076 Y103.833 E37.92844
G1 X127.113 Y104.12 E37.93626
G1 X127.113 Y105.594 E37.97609
G1 X128.587 Y105.594 E38.01592
G1 X128.885 Y105.634 E38.02405
G1 X129.163 Y105.751 E38.0322
G1 X129.487 Y106.022 E38.04361
G1 X129.67 Y106.261 E38.05175
G1 X129.783 Y106.54 E38.05988
G1 X129.82 Y106.827 E38.0677
G1 X129.82 Y128.587 E38.65574
G1 X129.78 Y128.885 E38.66387
G1 X129.663 Y129.163 E38.67202
G1 X129.392 Y129.487 E38.68343
G1 X129.153 Y129.67 E38.69157
G1 X128.874 Y129.783 E38.6997
G1 X128.587 Y129.82 E38.70752
G1 X106.827 Y129.82 E39.29556
G1 X106.529 Y129.78 E39.30369
G1 X106.251 Y129.663 E39.31184
G1 X105.927 Y129.392 E39.32325
G1 X105.744 Y129.153 E39.33139
G1 X105.631 Y128.874 E39.33952
G1 X105.594 Y128.587 E39.34734
G1 X105.594 Y127.113 E39.38717
G1 X104.12 Y127.113 E39.42701
G1 X103.822 Y127.073 E39.43513
G1 X103.544 Y126.956 E39.44328
G1 X103.22 Y126.685 E39.4547
G1 X103.037 Y126.446 E39.46283
G1 X102.924 Y126.167 E39.47097
G1 X102.887 Y125.88 E39.47879
G1 X102.887 Y104.12 E40.06683
G0 F3000 X102.562 Y104.12
G1 F1200 X102.602 Y103.781 E40.07605
G1 X102.719 Y103.46 E40.08528
G1 X103.086 Y102.991 E40.10138
G1 X103.354 Y102.779 E40.11061
G1 X103.663 Y102.635 E40.11982
G1 X104.12 Y102.562 E40.13233
G1 X125.88 Y102.562 E40.72037
G1 X126.219 Y102.602 E40.72959
G1 X126.54 Y102.719 E40.73883
G1 X127.009 Y103.086 E40.75492
G1 X127.221 Y103.354 E40.76416
G1 X127.365 Y103.663 E40.77337
G1 X127.438 Y104.12 E40.78587
G1 X127.438 Y105.269 E40.81693
G1 X128.587 Y105.269 E40.84798
G1 X128.926 Y105.309 E40.8572
G1 X129.247 Y105.426 E40.86643
G1 X129.716 Y105.793 E40.88253
G1 X129.928 Y106.061 E40.89176
G1 X130.072 Y106.37 E40.90097
G1 X130.145 Y106.827 E40.91348
G1 X130.145 Y128.587 E41.50152
G1 X130.105 Y128.926 E41.51074
G1 X129.988 Y129.247 E41.51998
G1 X129.621 Y129.716 E41.53607
G1 X129.353 Y129.928 E41.5453
G1 X129.044 Y130.072 E41.55452
G1 X128.587 Y130.145 E41.56702
G1 X106.827 Y130.145 E42.15506
G1 X106.488 Y130.105 E42.16429
G1 X106.167 Y129.988 E42.17352
G1 X105.698 Y129.621 E42.18961
G1 X105.486 Y129.353 E42.19885
G1 X105.342 Y129.044 E42.20806
G1 X105.269 Y128.587 E42.22057
G1 X105.269 Y127.438 E42.25162
G1 X104.12 Y127.438 E42.28267
G1 X103.781 Y127.398 E42.29189
G1 X103.46 Y127.281 E42.30113
G1 X102.991 Y126.914 E42.31722
G1 X102.779 Y126.646 E42.32645
G1 X102.635 Y126.337 E42.33567
G1 X102.562 Y125.88 E42.34817
G1 X102.562 Y104.12 E42.93621
G0 F3000 X102.237 Y104.12
G1 F1200 X102.277 Y103.744 E42.94643
G1 X102.395 Y103.386 E42.95662
G1 X102.585 Y103.06 E42.96681
G1 X102.856 Y102.761 E42.97772
G1 X103.149 Y102.523 E42.98792
G1 X103.487 Y102.353 E42.99814
G1 X103.852 Y102.257 E43.00834
G1 X104.12 Y102.237 E43.01561
G1 X125.88 Y102.237 E43.60364
G1 X126.256 Y102.277 E43.61386
G1 X126.614 Y102.395 E43.62405
G1 X126.94 Y102.585 E43.63425
G1 X127.239 Y102.856 E43.64515
G1 X127.477 Y103.149 E43.65535
G1 X127.647 Y103.487 E43.66558
G1 X127.743 Y103.852 E43.67578
G1 X127.763 Y104.12 E43.68304
G1 X127.763 Y104.944 E43.70531
G1 X128.587 Y104.944 E43.72757
G1 X128.963 Y104.984 E43.73779
G1 X129.321 Y105.102 E43.74798
G1 X129.647 Y105.292 E43.75818
G1 X129.946 Y105.563 E43.76908
G1 X130.184 Y105.856 E43.77928
G1 X130.354 Y106.194 E43.78951
G1 X130.45 Y106.559 E43.79971
G1 X130.47 Y106.827 E43.80697
G1 X130.47 Y128.587 E44.39501
G1 X130.43 Y128.963 E44.40523
G1 X130.312 Y129.321 E44.41541
G1 X130.122 Y129.647 E44.42561
G1 X129.851 Y129.946 E44.43651
G1 X129.558 Y130.184 E44.44671
G1 X129.22 Y130.354 E44.45694
G1 X128.855 Y130.45 E44.46714
G1 X128.587 Y130.47 E44.4744
G1 X106.827 Y130.47 E45.06244
G1 X106.451 Y130.43 E45.07266
G1 X106.093 Y130.312 E45.08284
G1 X105.767 Y130.122 E45.09304
G1 X105.468 Y129.851 E45.10395
G1 X105.23 Y129.558 E45.11415
G1 X105.06 Y129.22 E45.12437
G1 X104.964 Y128.855 E45.13457
G1 X104.944 Y128.587 E45.14183
G1 X104.944 Y127.763 E45.1641
G1 X104.12 Y127.763 E45.18637
G1 X103.744 Y127.723 E45.19659
G1 X103.386 Y127.605 E45.20677
G1 X103.06 Y127.415 E45.21697
G1 X102.761 Y127.144 E45.22788
G1 X102.523 Y126.851 E45.23808
G1 X102.353 Y126.513 E45.2483
G1 X102.257 Y126.148 E45.2585
G1 X102.237 Y125.88 E45.26576
G1 X102.237 Y104.12 E45.8538
G0 F3000 X101.912 Y104.12
G1 F1200 X101.952 Y103.711 E45.86491
G1 X102.07 Y103.318 E45.876
G1 X102.262 Y102.955 E45.88709
G1 X102.626 Y102.531 E45.9022
G1 X102.943 Y102.27 E45.91329
G1 X103.305 Y102.076 E45.92439
G1 X103.697 Y101.955 E45.93548
G1 X104.12 Y101.912 E45.94697
G1 X125.88 Y101.912 E46.53501
G1 X126.289 Y101.952 E46.54611
G1 X126.682 Y102.07 E46.5572
G1 X127.045 Y102.262 E46.5683
G1 X127.469 Y102.626 E46.5834
G1 X127.73 Y102.943 E46.5945
G1 X127.924 Y103.305 E46.60559
G1 X128.045 Y103.697 E46.61668
G1 X128.088 Y104.619 E46.64162
G1 X128.996 Y104.659 E46.66619
G1 X129.389 Y104.777 E46.67727
G1 X129.752 Y104.969 E46.68837
G1 X130.176 Y105.333 E46.70347
G1 X130.437 Y105.65 E46.71457
G1 X130.631 Y106.012 E46.72567
G1 X130.752 Y106.404 E46.73676
G1 X130.795 Y106.827 E46.74825
G1 X130.795 Y128.587 E47.33628
G1 X130.755 Y128.996 E47.34739
G1 X130.637 Y129.389 E47.35848
G1 X130.445 Y129.752 E47.36958
G1 X130.081 Y130.176 E47.38468
G1 X129.764 Y130.437 E47.39577
G1 X129.402 Y130.631 E47.40687
G1 X129.01 Y130.752 E47.41796
G1 X128.587 Y130.795 E47.42945
G1 X106.827 Y130.795 E48.01749
G1 X106.418 Y130.755 E48.02859
G1 X106.025 Y130.637 E48.03968
G1 X105.662 Y130.445 E48.05078
G1 X105.238 Y130.081 E48.06588
G1 X104.977 Y129.764 E48.07698
G1 X104.783 Y129.402 E48.08808
G1 X104.662 Y129.01 E48.09916
G1 X104.619 Y128.088 E48.12411
G1 X103.711 Y128.048 E48.14867
G1 X103.318 Y127.93 E48.15976
G1 X102.955 Y127.738 E48.17085
G1 X102.531 Y127.374 E48.18596
G1 X102.27 Y127.057 E48.19705
G1 X102.076 Y126.695 E48.20815
G1 X101.955 Y126.303 E48.21924
G1 X101.912 Y125.88 E48.23073
G1 X101.912 Y104.12 E48.81877
G0 F3000 X101.587 Y104.12
G1 F1200 X101.627 Y103.681 E48.83068
G1 X101.745 Y103.256 E48.8426
G1 X101.938 Y102.859 E48.85453
G1 X102.301 Y102.396 E48.87043
G1 X102.735 Y102.019 E48.88596
G1 X103.119 Y101.802 E48.89788
G1 X103.536 Y101.658 E48.9098
G1 X104.12 Y101.587 E48.9257
G1 X125.88 Y101.587 E49.51374
G1 X126.319 Y101.627 E49.52565
G1 X126.744 Y101.745 E49.53757
G1 X127.141 Y101.938 E49.5495
G1 X127.604 Y102.301 E49.5654
G1 X127.981 Y102.735 E49.58094
G1 X128.198 Y103.119 E49.59286
G1 X128.342 Y103.536 E49.60478
G1 X128.413 Y104.12 E49.62068
G1 X128.413 Y104.294 E49.62538
G1 X129.026 Y104.334 E49.64198
G1 X129.451 Y104.452 E49.6539
G1 X129.848 Y104.645 E49.66583
G1 X130.311 Y105.008 E49.68173
G1 X130.688 Y105.442 E49.69726
G1 X130.905 Y105.826 E49.70918
G1 X131.049 Y106.243 E49.7211
G1 X131.12 Y106.827 E49.737
G1 X131.12 Y128.587 E50.32504
G1 X131.08 Y129.026 E50.33695
G1 X130.962 Y129.451 E50.34887
G1 X130.769 Y129.848 E50.3608
G1 X130.406 Y130.311 E50.3767
G1 X129.972 Y130.688 E50.39224
G1 X129.588 Y130.905 E50.40416
G1 X129.171 Y131.049 E50.41608
G1 X128.587 Y131.12 E50.43198
G1 X106.827 Y131.12 E51.02002
G1 X106.388 Y131.08 E51.03193
G1 X105.963 Y130.962 E51.04385
G1 X105.566 Y130.769 E51.05578
G1 X105.103 Y130.406 E51.07168
G1 X104.726 Y129.972 E51.08721
G1 X104.509 Y129.588 E51.09913
G1 X104.365 Y129.171 E51.11105
G1 X104.294 Y128.587 E51.12695
G1 X104.294 Y128.413 E51.13165
G1 X103.681 Y128.373 E51.14825
G1 X103.256 Y128.255 E51.16017
G1 X102.859 Y128.062 E51.1721
G1 X102.396 Y127.699 E51.188
G1 X102.019 Y127.265 E51.20354
G1 X101.802 Y126.881 E51.21546
G1 X101.658 Y126.464 E51.22738
G1 X101.587 Y125.88 E51.24328
G1 X101.587 Y104.12 E51.83132
G0 F3000 X101.262 Y104.12
G1 F1200 X101.302 Y103.652 E51.84401
G1 X101.421 Y103.197 E51.85672
G1 X101.614 Y102.77 E51.86938
G1 X102.071 Y102.166 E51.88985
G1 X102.525 Y101.769 E51.90615
G1 X102.931 Y101.531 E51.91887
G1 X103.37 Y101.366 E51.93154
G1 X104.12 Y101.262 E51.952
G1 X125.88 Y101.262 E52.54004
G1 X126.348 Y101.302 E52.55273
G1 X126.803 Y101.421 E52.56544
G1 X127.23 Y101.614 E52.57811
G1 X127.834 Y102.071 E52.59857
G1 X128.231 Y102.525 E52.61487
G1 X128.469 Y102.931 E52.62759
G1 X128.634 Y103.37 E52.64026
G1 X128.731 Y103.981 E52.65698
G1 X129.055 Y104.009 E52.66577
G1 X129.51 Y104.128 E52.67848
G1 X129.937 Y104.321 E52.69114
G1 X130.541 Y104.778 E52.71161
G1 X130.938 Y105.232 E52.72791
G1 X131.176 Y105.638 E52.74063
G1 X131.341 Y106.077 E52.7533
G1 X131.445 Y106.827 E52.77376
G1 X131.445 Y128.587 E53.3618
G1 X131.405 Y129.055 E53.3745
G1 X131.286 Y129.51 E53.3872
G1 X131.093 Y129.937 E53.39987
G1 X130.636 Y130.541 E53.42034
