;FLAVOR:Marlin
;TIME:284
;Filament used: 0.1367m
;Layer height: 0.15
;MINX:98.812
;MINY:92.307
;MINZ:0.2
;MAXX:129.188
;MAXY:122.683
;MAXZ:1.7
;Generated with Cura_SteamEngine 4.8.0
M140 S60
M105
M190 S60
M104 S195
M105
M109 S195
M82 ;absolute extrusion mode
G28 ;Home
G1 Z50 F6000 ;Move the platform down 15mm
;Prime the extruder
G92 E0
G1 F200 E3
G92 E0
G92 E0
G92 E0
G1 F1500 E-6.5
;LAYER_COUNT:11
;LAYER:0
M107 P1
M204 S5000
G0 F2880 X102.922 Y97.111 Z0.2
M204 S3000
;TYPE:SKIRT
G1 F1500 E0
G1 F1200 X103.638 Y96.397 E0.02733
G1 X104.251 Y95.846 E0.0496
G1 X104.655 Y95.519 E0.06365
G1 X105.122 Y95.169 E0.07942
G1 X105.551 Y94.871 E0.09353
G1 X106.035 Y94.56 E0.10908
G1 X106.489 Y94.291 E0.12334
G1 X107.248 Y93.895 E0.14648
G1 X108.168 Y93.476 E0.17379
G1 X108.968 Y93.163 E0.19701
G1 X109.473 Y92.996 E0.21138
G1 X109.994 Y92.843 E0.22606
G1 X110.489 Y92.716 E0.23987
G1 X111.059 Y92.592 E0.25563
G1 X111.565 Y92.501 E0.26952
G1 X112.127 Y92.42 E0.28487
G1 X112.641 Y92.365 E0.29884
G1 X113.21 Y92.325 E0.31425
G1 X113.725 Y92.307 E0.32818
G1 X114.297 Y92.307 E0.34364
G1 X114.812 Y92.326 E0.35756
G1 X115.38 Y92.368 E0.37295
G1 X115.894 Y92.424 E0.38693
G1 X116.411 Y92.497 E0.40104
G1 X116.917 Y92.586 E0.41492
G1 X117.535 Y92.721 E0.43202
G1 X118.029 Y92.849 E0.44581
G1 X118.546 Y93.001 E0.46037
G1 X119.054 Y93.17 E0.47484
G1 X119.843 Y93.481 E0.49775
G1 X120.762 Y93.9 E0.52505
G1 X121.525 Y94.298 E0.5483
G1 X121.978 Y94.567 E0.56254
G1 X122.48 Y94.891 E0.57869
G1 X122.907 Y95.19 E0.59278
G1 X123.334 Y95.511 E0.60721
G1 X123.74 Y95.838 E0.6213
G1 X124.384 Y96.417 E0.6447
G1 X125.098 Y97.133 E0.67203
G1 X125.649 Y97.746 E0.6943
G1 X125.976 Y98.15 E0.70835
G1 X126.329 Y98.622 E0.72428
G1 X126.63 Y99.056 E0.73855
G1 X126.931 Y99.524 E0.75359
G1 X127.195 Y99.968 E0.76755
G1 X127.473 Y100.477 E0.78322
G1 X127.698 Y100.927 E0.79681
G1 X127.934 Y101.443 E0.81215
G1 X128.131 Y101.919 E0.82607
G1 X128.335 Y102.468 E0.8419
G1 X128.501 Y102.971 E0.85621
G1 X128.65 Y103.481 E0.87057
G1 X128.779 Y103.982 E0.88455
G1 X128.905 Y104.556 E0.90043
G1 X128.994 Y105.05 E0.914
G1 X129.075 Y105.615 E0.92942
G1 X129.13 Y106.129 E0.94339
G1 X129.17 Y106.697 E0.95878
G1 X129.188 Y107.211 E0.97268
G1 X129.188 Y107.779 E0.98803
G1 X129.169 Y108.302 E1.00217
G1 X129.13 Y108.845 E1.01688
G1 X129.076 Y109.359 E1.03085
G1 X128.994 Y109.936 E1.0466
G1 X128.903 Y110.442 E1.06049
G1 X128.774 Y111.03 E1.07676
G1 X128.646 Y111.524 E1.09055
G1 X128.495 Y112.036 E1.10497
G1 X128.327 Y112.542 E1.11938
G1 X128.014 Y113.34 E1.14255
G1 X127.594 Y114.26 E1.16988
G1 X127.2 Y115.014 E1.19287
G1 X126.935 Y115.461 E1.20691
G1 X126.609 Y115.965 E1.22313
G1 X126.306 Y116.398 E1.23741
G1 X125.991 Y116.819 E1.25162
G1 X125.669 Y117.22 E1.26552
G1 X125.289 Y117.659 E1.28121
G1 X124.94 Y118.034 E1.29505
G1 X124.526 Y118.447 E1.31086
G1 X124.153 Y118.793 E1.32461
G1 X123.754 Y119.14 E1.3389
G1 X123.352 Y119.466 E1.35288
G1 X122.874 Y119.824 E1.36902
G1 X122.44 Y120.125 E1.38329
G1 X121.96 Y120.434 E1.39872
G1 X121.521 Y120.694 E1.41251
G1 X121.024 Y120.964 E1.42779
G1 X120.562 Y121.195 E1.44175
G1 X120.053 Y121.428 E1.45688
G1 X119.583 Y121.623 E1.47063
G1 X119.018 Y121.833 E1.48692
G1 X118.513 Y121.999 E1.50129
G1 X118.009 Y122.146 E1.51547
G1 X117.515 Y122.273 E1.52926
G1 X116.926 Y122.401 E1.54555
G1 X116.42 Y122.491 E1.55943
G1 X115.888 Y122.567 E1.57396
G1 X115.374 Y122.623 E1.58793
G1 X114.79 Y122.665 E1.60375
G1 X114.275 Y122.683 E1.61768
G1 X113.703 Y122.683 E1.63314
G1 X113.189 Y122.664 E1.64703
G1 X112.637 Y122.624 E1.66199
G1 X112.122 Y122.569 E1.67599
G1 X111.571 Y122.49 E1.69103
G1 X111.066 Y122.4 E1.70489
G1 X110.466 Y122.269 E1.72149
G1 X109.972 Y122.141 E1.73528
G1 X109.469 Y121.993 E1.74945
G1 X108.964 Y121.826 E1.76382
G1 X108.412 Y121.621 E1.77973
G1 X107.942 Y121.426 E1.79349
G1 X107.414 Y121.184 E1.80918
G1 X106.953 Y120.952 E1.82313
G1 X106.475 Y120.691 E1.83785
G1 X106.036 Y120.431 E1.85163
G1 X105.532 Y120.105 E1.86785
G1 X105.1 Y119.803 E1.8821
G1 X104.671 Y119.482 E1.89658
G1 X104.267 Y119.157 E1.91059
G1 X103.834 Y118.782 E1.92607
G1 X103.461 Y118.435 E1.93984
G1 X103.048 Y118.022 E1.95562
G1 X102.7 Y117.647 E1.96945
G1 X102.342 Y117.233 E1.98424
G1 X102.019 Y116.833 E1.99813
G1 X101.673 Y116.371 E2.01373
G1 X101.371 Y115.936 E2.02804
G1 X101.058 Y115.449 E2.04368
G1 X100.796 Y115.006 E2.05759
G1 X100.518 Y114.494 E2.07334
G1 X100.294 Y114.043 E2.08694
G1 X100.082 Y113.579 E2.10073
G1 X99.88 Y113.097 E2.11485
G1 X99.658 Y112.501 E2.13204
G1 X99.495 Y112.004 E2.14618
G1 X99.349 Y111.505 E2.16023
G1 X99.223 Y111.015 E2.1739
G1 X99.098 Y110.443 E2.18972
G1 X99.006 Y109.932 E2.20375
G1 X98.924 Y109.353 E2.21956
G1 X98.87 Y108.839 E2.23352
G1 X98.831 Y108.301 E2.2481
G1 X98.812 Y107.787 E2.262
G1 X98.813 Y107.188 E2.27819
G1 X98.833 Y106.666 E2.2923
G1 X98.872 Y106.122 E2.30704
G1 X98.927 Y105.609 E2.32098
G1 X99.006 Y105.057 E2.33605
G1 X99.097 Y104.548 E2.35003
G1 X99.228 Y103.951 E2.36654
G1 X99.354 Y103.465 E2.38011
G1 X99.502 Y102.963 E2.39425
G1 X99.668 Y102.461 E2.40854
G1 X99.884 Y101.882 E2.42524
G1 X100.084 Y101.405 E2.43922
G1 X100.299 Y100.935 E2.45319
G1 X100.524 Y100.483 E2.46683
G1 X100.803 Y99.972 E2.48257
G1 X101.065 Y99.53 E2.49645
G1 X101.391 Y99.025 E2.51269
G1 X101.694 Y98.592 E2.52698
G1 X102.01 Y98.17 E2.54122
G1 X102.337 Y97.763 E2.55533
G1 X102.922 Y97.111 E2.579
M204 S5000
G0 F2880 X103.152 Y97.342
M204 S3000
G1 F1200 X103.868 Y96.628 E2.60633
G1 X104.456 Y96.099 E2.6277
G1 X104.86 Y95.772 E2.64175
G1 X105.307 Y95.436 E2.65686
G1 X105.736 Y95.138 E2.67098
G1 X106.201 Y94.84 E2.6859
G1 X106.655 Y94.571 E2.70016
G1 X107.382 Y94.191 E2.72233
G1 X108.302 Y93.772 E2.74965
G1 X109.07 Y93.471 E2.77194
G1 X109.575 Y93.304 E2.78632
G1 X110.075 Y93.158 E2.80039
G1 X110.57 Y93.031 E2.8142
G1 X111.116 Y92.912 E2.8293
G1 X111.622 Y92.821 E2.8432
G1 X112.161 Y92.743 E2.85791
G1 X112.675 Y92.688 E2.87188
G1 X113.221 Y92.65 E2.88668
G1 X113.736 Y92.632 E2.9006
G1 X114.285 Y92.632 E2.91544
G1 X114.8 Y92.651 E2.92936
G1 X115.345 Y92.691 E2.94413
G1 X115.859 Y92.747 E2.9581
G1 X116.355 Y92.817 E2.97164
G1 X116.861 Y92.906 E2.98552
G1 X117.454 Y93.035 E3.00192
G1 X117.948 Y93.163 E3.01571
G1 X118.443 Y93.31 E3.02967
G1 X118.951 Y93.479 E3.04414
G1 X119.709 Y93.776 E3.06614
G1 X120.628 Y94.195 E3.09343
G1 X121.359 Y94.578 E3.11573
G1 X121.812 Y94.847 E3.12997
G1 X122.293 Y95.157 E3.14544
G1 X122.72 Y95.456 E3.15952
G1 X123.13 Y95.764 E3.17338
G1 X123.536 Y96.091 E3.18747
G1 X124.153 Y96.647 E3.20991
G1 X124.867 Y97.363 E3.23724
G1 X125.396 Y97.951 E3.25861
G1 X125.723 Y98.355 E3.27266
G1 X126.062 Y98.807 E3.28793
G1 X126.363 Y99.241 E3.3022
G1 X126.652 Y99.69 E3.31663
G1 X126.916 Y100.134 E3.33059
G1 X127.183 Y100.622 E3.34562
G1 X127.408 Y101.072 E3.35922
G1 X127.633 Y101.567 E3.37391
G1 X127.83 Y102.043 E3.38783
G1 X128.026 Y102.57 E3.40303
G1 X128.192 Y103.073 E3.41734
G1 X128.336 Y103.562 E3.43112
G1 X128.465 Y104.063 E3.4451
G1 X128.585 Y104.614 E3.46034
G1 X128.674 Y105.108 E3.4739
G1 X128.752 Y105.649 E3.48867
G1 X128.807 Y106.163 E3.50264
G1 X128.845 Y106.709 E3.51743
G1 X128.863 Y107.223 E3.53133
G1 X128.863 Y107.767 E3.54603
G1 X128.844 Y108.29 E3.56018
G1 X128.807 Y108.811 E3.57429
G1 X128.753 Y109.325 E3.58826
G1 X128.674 Y109.879 E3.60338
G1 X128.583 Y110.385 E3.61727
G1 X128.46 Y110.949 E3.63287
G1 X128.332 Y111.443 E3.64666
G1 X128.187 Y111.934 E3.6605
G1 X128.019 Y112.44 E3.67491
G1 X127.718 Y113.205 E3.69712
G1 X127.298 Y114.125 E3.72445
G1 X126.92 Y114.848 E3.7465
G1 X126.655 Y115.295 E3.76054
G1 X126.343 Y115.779 E3.77611
G1 X126.04 Y116.212 E3.79039
G1 X125.738 Y116.615 E3.804
G1 X125.416 Y117.016 E3.81789
G1 X125.051 Y117.438 E3.83297
G1 X124.702 Y117.813 E3.84682
G1 X124.305 Y118.209 E3.86197
G1 X123.932 Y118.555 E3.87572
G1 X123.549 Y118.887 E3.88942
G1 X123.147 Y119.213 E3.9034
G1 X122.689 Y119.557 E3.91888
G1 X122.255 Y119.858 E3.93315
G1 X121.794 Y120.154 E3.94796
G1 X121.355 Y120.414 E3.96175
G1 X120.879 Y120.674 E3.9764
G1 X120.417 Y120.905 E3.99036
G1 X119.928 Y121.128 E4.00489
G1 X119.458 Y121.323 E4.01864
G1 X118.916 Y121.524 E4.03426
G1 X118.411 Y121.69 E4.04863
G1 X117.928 Y121.831 E4.06222
G1 X117.434 Y121.958 E4.07601
G1 X116.87 Y122.081 E4.09161
G1 X116.364 Y122.171 E4.10549
G1 X115.853 Y122.244 E4.11944
G1 X115.339 Y122.3 E4.13342
G1 X114.779 Y122.34 E4.14859
G1 X114.264 Y122.358 E4.16251
G1 X113.715 Y122.358 E4.17735
G1 X113.201 Y122.339 E4.19125
G1 X112.672 Y122.301 E4.20558
G1 X112.157 Y122.246 E4.21958
G1 X111.628 Y122.171 E4.23402
G1 X111.123 Y122.081 E4.24788
G1 X110.547 Y121.955 E4.26381
G1 X110.053 Y121.827 E4.2776
G1 X109.571 Y121.685 E4.29118
G1 X109.066 Y121.518 E4.30556
G1 X108.537 Y121.321 E4.32081
G1 X108.067 Y121.126 E4.33456
G1 X107.56 Y120.894 E4.34963
G1 X107.099 Y120.662 E4.36358
G1 X106.641 Y120.411 E4.37769
G1 X106.202 Y120.151 E4.39148
G1 X105.718 Y119.839 E4.40704
G1 X105.286 Y119.537 E4.42128
G1 X104.874 Y119.228 E4.4352
G1 X104.47 Y118.903 E4.44921
G1 X104.056 Y118.544 E4.46402
G1 X103.683 Y118.197 E4.47779
G1 X103.286 Y117.801 E4.49294
G1 X102.938 Y117.426 E4.50677
G1 X102.595 Y117.029 E4.52095
G1 X102.272 Y116.629 E4.53484
G1 X101.94 Y116.186 E4.5498
G1 X101.638 Y115.751 E4.56411
G1 X101.338 Y115.283 E4.57913
G1 X101.076 Y114.84 E4.59304
G1 X100.809 Y114.35 E4.60812
G1 X100.585 Y113.899 E4.62173
G1 X100.382 Y113.453 E4.63497
G1 X100.18 Y112.971 E4.6491
G1 X99.966 Y112.399 E4.6656
G1 X99.803 Y111.902 E4.67973
G1 X99.664 Y111.424 E4.69319
G1 X99.538 Y110.934 E4.70686
G1 X99.418 Y110.385 E4.72205
G1 X99.326 Y109.874 E4.73608
G1 X99.247 Y109.319 E4.75123
G1 X99.193 Y108.805 E4.76519
G1 X99.156 Y108.289 E4.77917
G1 X99.137 Y107.775 E4.79307
G1 X99.138 Y107.201 E4.80858
G1 X99.158 Y106.679 E4.8227
G1 X99.196 Y106.157 E4.83684
G1 X99.251 Y105.644 E4.85079
G1 X99.326 Y105.114 E4.86525
G1 X99.417 Y104.605 E4.87923
G1 X99.542 Y104.032 E4.89508
G1 X99.668 Y103.546 E4.90864
G1 X99.81 Y103.065 E4.9222
G1 X99.976 Y102.563 E4.93648
G1 X100.184 Y102.008 E4.9525
G1 X100.384 Y101.531 E4.96648
G1 X100.59 Y101.08 E4.97988
G1 X100.815 Y100.628 E4.99352
G1 X101.083 Y100.137 E5.00864
G1 X101.345 Y99.695 E5.02252
G1 X101.657 Y99.211 E5.03809
G1 X101.96 Y98.778 E5.05237
G1 X102.264 Y98.373 E5.06605
G1 X102.591 Y97.966 E5.08016
G1 X103.152 Y97.342 E5.10284
M204 S5000
G0 F2880 X103.381 Y97.572
M204 S3000
G1 F1200 X104.097 Y96.858 E5.13016
G1 X104.66 Y96.352 E5.15062
G1 X105.064 Y96.025 E5.16466
G1 X105.493 Y95.703 E5.17916
G1 X105.922 Y95.405 E5.19328
G1 X106.366 Y95.119 E5.20755
G1 X106.82 Y94.85 E5.22181
G1 X107.517 Y94.487 E5.24305
G1 X108.437 Y94.068 E5.27037
G1 X109.172 Y93.78 E5.2917
G1 X109.677 Y93.613 E5.30607
G1 X110.156 Y93.472 E5.31957
G1 X110.651 Y93.345 E5.33338
G1 X111.174 Y93.231 E5.34784
G1 X111.68 Y93.14 E5.36173
G1 X112.196 Y93.067 E5.37582
G1 X112.71 Y93.012 E5.38979
G1 X113.233 Y92.974 E5.40396
G1 X113.748 Y92.956 E5.41788
G1 X114.273 Y92.957 E5.43207
G1 X114.788 Y92.976 E5.446
G1 X115.31 Y93.014 E5.46014
G1 X115.824 Y93.07 E5.47411
G1 X116.299 Y93.138 E5.48708
G1 X116.805 Y93.227 E5.50097
G1 X117.372 Y93.35 E5.51664
G1 X117.866 Y93.478 E5.53044
G1 X118.34 Y93.618 E5.54379
G1 X118.848 Y93.787 E5.55826
G1 X119.574 Y94.072 E5.57934
G1 X120.493 Y94.491 E5.60663
G1 X121.193 Y94.857 E5.62798
G1 X121.646 Y95.126 E5.64221
G1 X122.107 Y95.424 E5.65705
G1 X122.534 Y95.723 E5.67114
G1 X122.926 Y96.018 E5.68439
G1 X123.332 Y96.345 E5.69848
G1 X123.923 Y96.876 E5.71995
G1 X124.637 Y97.592 E5.74728
G1 X125.143 Y98.155 E5.76773
G1 X125.47 Y98.559 E5.78178
G1 X125.795 Y98.992 E5.79641
G1 X126.096 Y99.426 E5.81068
G1 X126.373 Y99.857 E5.82453
G1 X126.637 Y100.301 E5.83849
G1 X126.892 Y100.768 E5.85287
G1 X127.117 Y101.218 E5.86646
G1 X127.333 Y101.691 E5.88052
G1 X127.53 Y102.167 E5.89444
G1 X127.718 Y102.672 E5.909
G1 X127.884 Y103.175 E5.92331
G1 X128.021 Y103.643 E5.93649
G1 X128.15 Y104.144 E5.95047
G1 X128.265 Y104.671 E5.96505
G1 X128.354 Y105.165 E5.97861
G1 X128.428 Y105.684 E5.99278
G1 X128.483 Y106.198 E6.00675
G1 X128.521 Y106.72 E6.02089
G1 X128.539 Y107.234 E6.03479
G1 X128.538 Y107.755 E6.04887
G1 X128.519 Y108.278 E6.06301
G1 X128.484 Y108.777 E6.07653
G1 X128.43 Y109.291 E6.0905
G1 X128.355 Y109.821 E6.10496
G1 X128.264 Y110.327 E6.11886
G1 X128.145 Y110.867 E6.1338
G1 X128.017 Y111.361 E6.14759
G1 X127.878 Y111.831 E6.16084
G1 X127.71 Y112.337 E6.17524
G1 X127.423 Y113.07 E6.19652
G1 X127.003 Y113.99 E6.22385
G1 X126.641 Y114.682 E6.24495
G1 X126.376 Y115.129 E6.259
G1 X126.077 Y115.593 E6.27391
G1 X125.774 Y116.026 E6.28819
G1 X125.484 Y116.412 E6.30124
G1 X125.162 Y116.813 E6.31514
G1 X124.813 Y117.216 E6.32955
G1 X124.464 Y117.591 E6.34339
G1 X124.084 Y117.97 E6.35789
G1 X123.711 Y118.316 E6.37164
G1 X123.344 Y118.635 E6.38478
G1 X122.942 Y118.961 E6.39877
G1 X122.504 Y119.29 E6.41357
G1 X122.07 Y119.591 E6.42785
G1 X121.629 Y119.874 E6.44201
G1 X121.19 Y120.134 E6.45579
G1 X120.733 Y120.383 E6.46986
G1 X120.271 Y120.614 E6.48382
G1 X119.803 Y120.828 E6.49772
G1 X119.333 Y121.023 E6.51147
G1 X118.815 Y121.215 E6.5264
G1 X118.31 Y121.381 E6.54077
G1 X117.847 Y121.517 E6.55381
G1 X117.353 Y121.644 E6.56759
G1 X116.813 Y121.761 E6.58253
G1 X116.307 Y121.851 E6.59641
G1 X115.818 Y121.921 E6.60976
G1 X115.304 Y121.977 E6.62374
G1 X114.767 Y122.016 E6.63829
G1 X114.252 Y122.034 E6.65221
G1 X113.727 Y122.033 E6.6664
G1 X113.213 Y122.014 E6.6803
G1 X112.706 Y121.978 E6.69403
G1 X112.191 Y121.923 E6.70803
G1 X111.685 Y121.851 E6.72184
G1 X111.18 Y121.761 E6.7357
G1 X110.629 Y121.64 E6.75095
G1 X110.135 Y121.512 E6.76474
G1 X109.673 Y121.376 E6.77776
G1 X109.168 Y121.209 E6.79213
G1 X108.662 Y121.021 E6.80672
G1 X108.192 Y120.826 E6.82047
G1 X107.707 Y120.603 E6.83489
G1 X107.246 Y120.371 E6.84884
G1 X106.806 Y120.131 E6.86238
G1 X106.367 Y119.871 E6.87617
G1 X105.904 Y119.573 E6.89105
G1 X105.472 Y119.271 E6.9053
G1 X105.078 Y118.975 E6.91861
G1 X104.674 Y118.65 E6.93263
G1 X104.277 Y118.306 E6.94682
G1 X103.904 Y117.959 E6.96059
G1 X103.525 Y117.579 E6.97509
G1 X103.177 Y117.204 E6.98892
G1 X102.847 Y116.824 E7.00252
G1 X102.524 Y116.424 E7.01641
G1 X102.207 Y116.001 E7.0307
G1 X101.905 Y115.566 E7.04501
G1 X101.617 Y115.118 E7.0594
G1 X101.355 Y114.675 E7.07331
G1 X101.1 Y114.205 E7.08776
G1 X100.876 Y113.754 E7.10137
G1 X100.681 Y113.328 E7.11403
G1 X100.479 Y112.846 E7.12815
G1 X100.275 Y112.298 E7.14395
G1 X100.112 Y111.801 E7.15809
G1 X99.978 Y111.343 E7.17098
G1 X99.852 Y110.853 E7.18466
G1 X99.738 Y110.328 E7.19917
G1 X99.646 Y109.817 E7.2132
G1 X99.57 Y109.285 E7.22773
G1 X99.516 Y108.771 E7.24169
G1 X99.481 Y108.277 E7.25508
G1 X99.462 Y107.763 E7.26898
G1 X99.462 Y107.213 E7.28384
G1 X99.482 Y106.691 E7.29796
G1 X99.519 Y106.191 E7.31151
G1 X99.574 Y105.678 E7.32545
G1 X99.646 Y105.171 E7.33929
G1 X99.737 Y104.662 E7.35326
G1 X99.857 Y104.114 E7.36842
G1 X99.983 Y103.628 E7.38199
G1 X100.119 Y103.167 E7.39498
G1 X100.285 Y102.665 E7.40927
G1 X100.484 Y102.133 E7.42462
G1 X100.684 Y101.656 E7.43859
G1 X100.881 Y101.225 E7.4514
G1 X101.106 Y100.773 E7.46504
G1 X101.362 Y100.303 E7.47951
G1 X101.624 Y99.861 E7.49339
G1 X101.923 Y99.397 E7.50831
G1 X102.226 Y98.964 E7.52259
G1 X102.517 Y98.577 E7.53568
G1 X102.844 Y98.17 E7.54978
G1 X103.381 Y97.572 E7.5715
M204 S5000
G0 F2880 X103.611 Y97.802
M204 S3000
G1 F1200 X104.327 Y97.088 E7.59883
G1 X104.865 Y96.604 E7.61839
G1 X105.269 Y96.277 E7.63243
G1 X105.678 Y95.97 E7.64625
G1 X106.107 Y95.672 E7.66037
G1 X106.532 Y95.399 E7.67402
G1 X106.986 Y95.13 E7.68828
G1 X107.652 Y94.782 E7.70859
G1 X108.572 Y94.363 E7.7359
G1 X109.274 Y94.088 E7.75628
G1 X109.779 Y93.921 E7.77065
G1 X110.236 Y93.787 E7.78352
G1 X110.731 Y93.66 E7.79733
G1 X111.231 Y93.551 E7.81116
G1 X111.737 Y93.46 E7.82506
G1 X112.231 Y93.39 E7.83854
G1 X112.745 Y93.335 E7.85251
G1 X113.244 Y93.299 E7.86603
G1 X113.759 Y93.281 E7.87995
G1 X114.261 Y93.282 E7.89352
G1 X114.776 Y93.301 E7.90745
G1 X115.275 Y93.337 E7.92097
G1 X115.789 Y93.393 E7.93494
G1 X116.243 Y93.458 E7.94733
G1 X116.749 Y93.547 E7.96122
G1 X117.291 Y93.664 E7.9762
