;FLAVOR:Marlin
;TIME:10262
;Filament used: 4.85604m
;Layer height: 0.15
;MINX:32.062
;MINY:32.062
;MINZ:0.2
;MAXX:197.938
;MAXY:197.938
;MAXZ:0.5
;Generated with Cura_SteamEngine 4.8.0
M140 S60
M105
M190 S60
M104 S195
M105
M109 S195
M82 ;absolute extrusion mode
G28 ;Home
G1 Z50 F6000 ;Move the platform down 15mm
;Prime the extruder
G92 E0
G1 F200 E3
G92 E0
G92 E0
G92 E0
G1 F1500 E-6.5
;LAYER_COUNT:3
;LAYER:0
M107 P1
M204 S5000
G0 F2880 X37.054 Y37.592 Z0.2
M204 S3000
;TYPE:SKIRT
G1 F1500 E0
G1 F1200 X37.599 Y37.048 E0.02081
G1 X38.331 Y36.384 E0.04752
G1 X38.933 Y35.889 E0.06858
G1 X39.714 Y35.309 E0.09487
G1 X40.381 Y34.864 E0.11654
G1 X41.217 Y34.365 E0.14285
G1 X41.893 Y34.005 E0.16354
G1 X42.781 Y33.585 E0.19009
G1 X43.51 Y33.283 E0.21141
G1 X44.435 Y32.953 E0.23795
G1 X45.17 Y32.73 E0.25871
G1 X46.113 Y32.493 E0.28499
G1 X46.894 Y32.338 E0.3065
G1 X47.865 Y32.195 E0.33303
G1 X48.635 Y32.12 E0.35393
G1 X49.613 Y32.072 E0.38039
G1 X50.003 Y32.062 E0.39094
G1 X179.996 Y32.062 E3.90385
G1 X180.391 Y32.072 E3.91453
G1 X181.378 Y32.121 E3.94123
G1 X182.152 Y32.197 E3.96225
G1 X183.122 Y32.341 E3.98875
G1 X183.892 Y32.495 E4.00997
G1 X184.836 Y32.732 E4.03627
G1 X185.587 Y32.96 E4.05748
G1 X186.512 Y33.292 E4.08404
G1 X187.23 Y33.59 E4.10505
G1 X188.117 Y34.01 E4.13157
G1 X188.8 Y34.375 E4.1525
G1 X189.635 Y34.875 E4.1788
G1 X190.29 Y35.313 E4.20009
G1 X191.07 Y35.892 E4.22634
G1 X191.678 Y36.391 E4.2476
G1 X192.408 Y37.054 E4.27425
G1 X192.952 Y37.599 E4.29506
G1 X193.616 Y38.331 E4.32177
G1 X194.109 Y38.931 E4.34275
G1 X194.688 Y39.71 E4.36898
G1 X195.135 Y40.38 E4.39075
G1 X195.635 Y41.218 E4.41712
G1 X195.995 Y41.893 E4.43779
G1 X196.415 Y42.781 E4.46434
G1 X196.717 Y43.51 E4.48566
G1 X197.047 Y44.435 E4.5122
G1 X197.27 Y45.17 E4.53296
G1 X197.507 Y46.113 E4.55923
G1 X197.662 Y46.891 E4.58067
G1 X197.805 Y47.86 E4.60714
G1 X197.88 Y48.63 E4.62805
G1 X197.928 Y49.601 E4.65432
G1 X197.938 Y49.994 E4.66494
G1 X197.938 Y179.996 E8.1781
G1 X197.928 Y180.391 E8.18878
G1 X197.879 Y181.378 E8.21548
G1 X197.803 Y182.152 E8.2365
G1 X197.659 Y183.122 E8.263
G1 X197.505 Y183.892 E8.28422
G1 X197.268 Y184.836 E8.31052
G1 X197.04 Y185.587 E8.33173
G1 X196.708 Y186.512 E8.35829
G1 X196.41 Y187.23 E8.3793
G1 X195.99 Y188.117 E8.40582
G1 X195.625 Y188.8 E8.42675
G1 X195.125 Y189.635 E8.45305
G1 X194.687 Y190.29 E8.47434
G1 X194.108 Y191.07 E8.50059
G1 X193.609 Y191.678 E8.52185
G1 X192.946 Y192.408 E8.5485
G1 X192.401 Y192.952 E8.56931
G1 X191.669 Y193.616 E8.59602
G1 X191.067 Y194.111 E8.61708
G1 X190.286 Y194.691 E8.64337
G1 X189.619 Y195.136 E8.66504
G1 X188.783 Y195.635 E8.69135
G1 X188.107 Y195.995 E8.71204
G1 X187.219 Y196.415 E8.73859
G1 X186.49 Y196.717 E8.75991
G1 X185.565 Y197.047 E8.78645
G1 X184.83 Y197.27 E8.80721
G1 X183.887 Y197.507 E8.83349
G1 X183.106 Y197.662 E8.855
G1 X182.135 Y197.805 E8.88153
G1 X181.365 Y197.88 E8.90243
G1 X180.387 Y197.928 E8.92889
G1 X179.997 Y197.938 E8.93944
G1 X50.004 Y197.938 E12.45235
G1 X49.609 Y197.928 E12.46303
G1 X48.622 Y197.879 E12.48973
G1 X47.848 Y197.803 E12.51075
G1 X46.878 Y197.659 E12.53725
G1 X46.108 Y197.505 E12.55847
G1 X45.164 Y197.268 E12.58477
G1 X44.413 Y197.04 E12.60598
G1 X43.488 Y196.708 E12.63254
G1 X42.77 Y196.41 E12.65355
G1 X41.883 Y195.99 E12.68007
G1 X41.2 Y195.625 E12.701
G1 X40.365 Y195.125 E12.7273
G1 X39.708 Y194.686 E12.74865
G1 X38.927 Y194.106 E12.77494
G1 X38.321 Y193.607 E12.79616
G1 X37.59 Y192.943 E12.82284
G1 X37.046 Y192.399 E12.84363
G1 X36.383 Y191.668 E12.8703
G1 X35.887 Y191.064 E12.89142
G1 X35.308 Y190.284 E12.91767
G1 X34.864 Y189.619 E12.93928
G1 X34.365 Y188.783 E12.96559
G1 X34.005 Y188.107 E12.98629
G1 X33.584 Y187.217 E13.0129
G1 X33.281 Y186.486 E13.03428
G1 X32.952 Y185.563 E13.06076
G1 X32.73 Y184.83 E13.08146
G1 X32.493 Y183.887 E13.10773
G1 X32.338 Y183.106 E13.12925
G1 X32.195 Y182.135 E13.15577
G1 X32.12 Y181.369 E13.17657
G1 X32.072 Y180.4 E13.20279
G1 X32.062 Y180.006 E13.21344
G1 X32.062 Y50.004 E16.7266
G1 X32.072 Y49.609 E16.73728
G1 X32.121 Y48.622 E16.76398
G1 X32.197 Y47.848 E16.785
G1 X32.341 Y46.878 E16.8115
G1 X32.495 Y46.108 E16.83272
G1 X32.732 Y45.164 E16.85902
G1 X32.96 Y44.413 E16.88023
G1 X33.292 Y43.488 E16.90679
G1 X33.59 Y42.77 E16.9278
G1 X34.01 Y41.883 E16.95432
G1 X34.375 Y41.2 E16.97525
G1 X34.875 Y40.365 E17.00155
G1 X35.313 Y39.71 E17.02284
G1 X35.892 Y38.93 E17.04909
G1 X36.391 Y38.322 E17.07035
G1 X37.054 Y37.592 E17.097
M204 S5000
G0 F2880 X37.295 Y37.811
M204 S3000
G1 F1200 X37.817 Y37.289 E17.11695
G1 X38.549 Y36.625 E17.14366
G1 X39.127 Y36.15 E17.16387
G1 X39.908 Y35.57 E17.19016
G1 X40.547 Y35.143 E17.21093
G1 X41.383 Y34.644 E17.23724
G1 X42.032 Y34.298 E17.25712
G1 X42.92 Y33.878 E17.28366
G1 X43.62 Y33.589 E17.30413
G1 X44.545 Y33.259 E17.33067
G1 X45.249 Y33.045 E17.35055
G1 X46.192 Y32.808 E17.37683
G1 X46.941 Y32.66 E17.39746
G1 X47.912 Y32.517 E17.42398
G1 X48.651 Y32.444 E17.44405
G1 X49.629 Y32.396 E17.47051
G1 X50.003 Y32.387 E17.48062
G1 X179.996 Y32.387 E20.99354
G1 X180.375 Y32.396 E21.00378
G1 X181.362 Y32.445 E21.03049
G1 X182.105 Y32.519 E21.05066
G1 X183.075 Y32.663 E21.07716
G1 X183.813 Y32.81 E21.0975
G1 X184.757 Y33.047 E21.1238
G1 X185.477 Y33.266 E21.14414
G1 X186.402 Y33.598 E21.1707
G1 X187.091 Y33.884 E21.19086
G1 X187.978 Y34.304 E21.21738
G1 X188.633 Y34.654 E21.23745
G1 X189.468 Y35.154 E21.26375
G1 X190.097 Y35.574 E21.28419
G1 X190.877 Y36.153 E21.31044
G1 X191.459 Y36.632 E21.33081
G1 X192.189 Y37.295 E21.35746
G1 X192.711 Y37.817 E21.37741
G1 X193.375 Y38.549 E21.40412
G1 X193.848 Y39.125 E21.42426
G1 X194.427 Y39.904 E21.45049
G1 X194.856 Y40.546 E21.47135
G1 X195.356 Y41.384 E21.49772
G1 X195.702 Y42.032 E21.51758
G1 X196.122 Y42.92 E21.54412
G1 X196.411 Y43.62 E21.56459
G1 X196.741 Y44.545 E21.59113
G1 X196.955 Y45.249 E21.61101
G1 X197.192 Y46.192 E21.63729
G1 X197.34 Y46.939 E21.65787
G1 X197.483 Y47.908 E21.68434
G1 X197.556 Y48.646 E21.70438
G1 X197.604 Y49.617 E21.73065
G1 X197.613 Y49.994 E21.74084
G1 X197.613 Y179.996 E25.254
G1 X197.604 Y180.375 E25.26424
G1 X197.555 Y181.362 E25.29095
G1 X197.481 Y182.105 E25.31112
G1 X197.337 Y183.075 E25.33762
G1 X197.19 Y183.813 E25.35796
G1 X196.953 Y184.757 E25.38426
G1 X196.734 Y185.477 E25.4046
G1 X196.402 Y186.402 E25.43116
G1 X196.116 Y187.091 E25.45132
G1 X195.696 Y187.978 E25.47784
G1 X195.346 Y188.633 E25.49791
G1 X194.846 Y189.468 E25.52421
G1 X194.426 Y190.097 E25.54465
G1 X193.847 Y190.877 E25.5709
G1 X193.368 Y191.459 E25.59127
G1 X192.705 Y192.189 E25.61792
G1 X192.183 Y192.711 E25.63787
G1 X191.451 Y193.375 E25.66458
G1 X190.873 Y193.85 E25.68479
G1 X190.092 Y194.43 E25.71108
G1 X189.453 Y194.857 E25.73185
G1 X188.617 Y195.356 E25.75816
G1 X187.968 Y195.702 E25.77804
G1 X187.08 Y196.122 E25.80458
G1 X186.38 Y196.411 E25.82505
G1 X185.455 Y196.741 E25.85159
G1 X184.751 Y196.955 E25.87147
G1 X183.808 Y197.192 E25.89775
G1 X183.059 Y197.34 E25.91838
G1 X182.088 Y197.483 E25.9449
G1 X181.349 Y197.556 E25.96497
G1 X180.371 Y197.604 E25.99143
G1 X179.997 Y197.613 E26.00154
G1 X50.004 Y197.613 E29.51446
G1 X49.625 Y197.604 E29.5247
G1 X48.638 Y197.555 E29.55141
G1 X47.895 Y197.481 E29.57158
G1 X46.925 Y197.337 E29.59808
G1 X46.187 Y197.19 E29.61842
G1 X45.243 Y196.953 E29.64472
G1 X44.523 Y196.734 E29.66506
G1 X43.598 Y196.402 E29.69162
G1 X42.909 Y196.116 E29.71178
G1 X42.022 Y195.696 E29.7383
G1 X41.367 Y195.346 E29.75837
G1 X40.532 Y194.846 E29.78467
G1 X39.902 Y194.425 E29.80515
G1 X39.121 Y193.845 E29.83144
G1 X38.539 Y193.367 E29.85179
G1 X37.808 Y192.703 E29.87848
G1 X37.286 Y192.18 E29.89844
G1 X36.623 Y191.449 E29.92511
G1 X36.148 Y190.871 E29.94533
G1 X35.569 Y190.091 E29.97158
G1 X35.143 Y189.453 E29.99231
G1 X34.644 Y188.617 E30.01862
G1 X34.299 Y187.968 E30.03849
G1 X33.878 Y187.078 E30.06509
G1 X33.587 Y186.376 E30.08563
G1 X33.258 Y185.453 E30.11211
G1 X33.045 Y184.751 E30.13193
G1 X32.808 Y183.808 E30.15821
G1 X32.66 Y183.059 E30.17884
G1 X32.517 Y182.088 E30.20537
G1 X32.444 Y181.353 E30.22533
G1 X32.396 Y180.384 E30.25154
G1 X32.387 Y180.006 E30.26176
G1 X32.387 Y50.004 E33.77492
G1 X32.396 Y49.625 E33.78516
G1 X32.445 Y48.638 E33.81187
G1 X32.519 Y47.895 E33.83205
G1 X32.663 Y46.925 E33.85855
G1 X32.81 Y46.187 E33.87888
G1 X33.047 Y45.243 E33.90518
G1 X33.266 Y44.523 E33.92552
G1 X33.598 Y43.598 E33.95208
G1 X33.884 Y42.909 E33.97224
G1 X34.304 Y42.022 E33.99876
G1 X34.654 Y41.367 E34.01883
G1 X35.154 Y40.532 E34.04513
G1 X35.574 Y39.903 E34.06557
G1 X36.153 Y39.123 E34.09182
G1 X36.632 Y38.541 E34.11219
G1 X37.295 Y37.811 E34.13884
M204 S5000
G0 F2880 X37.535 Y38.029
M204 S3000
G1 F1200 X38.036 Y37.529 E34.15797
G1 X38.768 Y36.865 E34.18468
G1 X39.321 Y36.411 E34.20401
G1 X40.102 Y35.831 E34.2303
G1 X40.714 Y35.423 E34.25018
G1 X41.55 Y34.924 E34.27649
G1 X42.171 Y34.592 E34.29552
G1 X43.059 Y34.172 E34.32206
G1 X43.729 Y33.895 E34.34166
G1 X44.654 Y33.565 E34.3682
G1 X45.328 Y33.361 E34.38723
G1 X46.271 Y33.124 E34.4135
G1 X46.989 Y32.981 E34.43329
G1 X47.96 Y32.838 E34.45981
G1 X48.667 Y32.769 E34.47901
G1 X49.645 Y32.721 E34.50547
G1 X50.003 Y32.712 E34.51514
G1 X179.996 Y32.712 E38.02806
G1 X180.359 Y32.721 E38.03787
G1 X181.346 Y32.77 E38.06458
G1 X182.057 Y32.84 E38.08388
G1 X183.027 Y32.984 E38.11038
G1 X183.734 Y33.125 E38.12986
G1 X184.678 Y33.362 E38.15617
G1 X185.367 Y33.572 E38.17563
G1 X186.292 Y33.904 E38.20219
G1 X186.952 Y34.178 E38.2215
G1 X187.839 Y34.598 E38.24802
G1 X188.466 Y34.933 E38.26723
G1 X189.301 Y35.433 E38.29354
G1 X189.903 Y35.835 E38.3131
G1 X190.683 Y36.414 E38.33935
G1 X191.241 Y36.872 E38.35886
G1 X191.971 Y37.535 E38.38551
G1 X192.471 Y38.036 E38.40463
G1 X193.135 Y38.768 E38.43134
G1 X193.587 Y39.319 E38.4506
G1 X194.166 Y40.098 E38.47683
G1 X194.577 Y40.713 E38.49682
G1 X195.077 Y41.551 E38.52319
G1 X195.408 Y42.171 E38.54218
G1 X195.828 Y43.059 E38.56873
G1 X196.105 Y43.729 E38.58832
G1 X196.435 Y44.654 E38.61486
G1 X196.639 Y45.328 E38.63389
G1 X196.876 Y46.271 E38.66017
G1 X197.019 Y46.986 E38.67987
G1 X197.162 Y47.955 E38.70634
G1 X197.231 Y48.662 E38.72554
G1 X197.279 Y49.633 E38.75181
G1 X197.288 Y49.994 E38.76157
G1 X197.288 Y179.996 E42.27473
G1 X197.279 Y180.359 E42.28454
G1 X197.23 Y181.346 E42.31124
G1 X197.16 Y182.057 E42.33055
G1 X197.016 Y183.027 E42.35705
G1 X196.875 Y183.734 E42.37653
G1 X196.638 Y184.678 E42.40284
G1 X196.428 Y185.367 E42.4223
G1 X196.096 Y186.292 E42.44886
G1 X195.822 Y186.952 E42.46817
G1 X195.402 Y187.839 E42.49469
G1 X195.067 Y188.466 E42.5139
G1 X194.567 Y189.301 E42.5402
G1 X194.165 Y189.903 E42.55977
G1 X193.586 Y190.683 E42.58602
G1 X193.128 Y191.241 E42.60553
G1 X192.465 Y191.971 E42.63218
G1 X191.964 Y192.471 E42.6513
G1 X191.232 Y193.135 E42.67801
G1 X190.679 Y193.589 E42.69735
G1 X189.898 Y194.169 E42.72364
G1 X189.286 Y194.577 E42.74351
G1 X188.45 Y195.076 E42.76982
G1 X187.829 Y195.408 E42.78885
G1 X186.941 Y195.828 E42.8154
G1 X186.271 Y196.105 E42.83499
G1 X185.346 Y196.435 E42.86153
G1 X184.672 Y196.639 E42.88056
G1 X183.729 Y196.876 E42.90684
G1 X183.011 Y197.019 E42.92662
G1 X182.04 Y197.162 E42.95314
G1 X181.333 Y197.231 E42.97234
G1 X180.355 Y197.279 E42.9988
G1 X179.997 Y197.288 E43.00848
G1 X50.004 Y197.288 E46.52139
G1 X49.641 Y197.279 E46.53121
G1 X48.654 Y197.23 E46.55791
G1 X47.943 Y197.16 E46.57722
G1 X46.973 Y197.016 E46.60372
G1 X46.266 Y196.875 E46.6232
G1 X45.322 Y196.638 E46.6495
G1 X44.633 Y196.428 E46.66897
G1 X43.708 Y196.096 E46.69553
G1 X43.048 Y195.822 E46.71484
G1 X42.161 Y195.402 E46.74136
G1 X41.534 Y195.067 E46.76057
G1 X40.699 Y194.567 E46.78687
G1 X40.096 Y194.164 E46.80647
G1 X39.315 Y193.584 E46.83276
G1 X38.758 Y193.126 E46.85225
G1 X38.027 Y192.462 E46.87893
G1 X37.527 Y191.962 E46.89804
G1 X36.864 Y191.231 E46.92471
G1 X36.409 Y190.677 E46.94409
G1 X35.83 Y189.897 E46.97034
G1 X35.423 Y189.286 E46.99018
G1 X34.924 Y188.45 E47.01649
G1 X34.592 Y187.829 E47.03552
G1 X34.171 Y186.939 E47.06212
G1 X33.894 Y186.267 E47.08177
G1 X33.565 Y185.344 E47.10825
G1 X33.361 Y184.672 E47.12722
G1 X33.124 Y183.729 E47.1535
G1 X32.981 Y183.011 E47.17328
G1 X32.838 Y182.04 E47.19981
G1 X32.769 Y181.337 E47.2189
G1 X32.721 Y180.368 E47.24511
G1 X32.712 Y180.006 E47.2549
G1 X32.712 Y50.004 E50.76806
G1 X32.721 Y49.641 E50.77787
G1 X32.77 Y48.654 E50.80457
G1 X32.84 Y47.943 E50.82388
G1 X32.984 Y46.973 E50.85038
G1 X33.125 Y46.266 E50.86986
G1 X33.362 Y45.322 E50.89617
G1 X33.572 Y44.633 E50.91563
G1 X33.904 Y43.708 E50.94219
G1 X34.178 Y43.048 E50.9615
G1 X34.598 Y42.161 E50.98802
G1 X34.933 Y41.534 E51.00723
G1 X35.433 Y40.699 E51.03353
G1 X35.835 Y40.097 E51.0531
G1 X36.414 Y39.317 E51.07935
G1 X36.872 Y38.759 E51.09886
G1 X37.535 Y38.029 E51.12551
M204 S5000
G0 F2880 X37.776 Y38.248
M204 S3000
G1 F1200 X38.254 Y37.77 E51.14377
G1 X38.986 Y37.106 E51.17048
G1 X39.515 Y36.672 E51.18897
G1 X40.296 Y36.092 E51.21526
G1 X40.88 Y35.702 E51.23424
G1 X41.716 Y35.203 E51.26055
G1 X42.31 Y34.886 E51.27874
G1 X43.198 Y34.466 E51.30529
G1 X43.838 Y34.201 E51.32401
G1 X44.763 Y33.871 E51.35055
G1 X45.408 Y33.676 E51.36876
G1 X46.351 Y33.439 E51.39503
G1 X47.036 Y33.303 E51.41391
G1 X48.007 Y33.16 E51.44043
G1 X48.682 Y33.093 E51.45876
G1 X49.66 Y33.045 E51.48522
G1 X50.003 Y33.037 E51.49449
G1 X179.996 Y33.037 E55.00741
G1 X180.342 Y33.046 E55.01676
G1 X181.329 Y33.095 E55.04347
G1 X182.009 Y33.162 E55.06193
G1 X182.979 Y33.306 E55.08843
G1 X183.655 Y33.44 E55.10705
G1 X184.599 Y33.677 E55.13336
G1 X185.258 Y33.878 E55.15198
G1 X186.183 Y34.21 E55.17853
G1 X186.813 Y34.471 E55.19696
G1 X187.7 Y34.891 E55.22348
G1 X188.299 Y35.212 E55.24185
G1 X189.134 Y35.712 E55.26815
G1 X189.709 Y36.096 E55.28684
G1 X190.489 Y36.675 E55.31309
G1 X191.022 Y37.113 E55.33173
G1 X191.752 Y37.776 E55.35838
G1 X192.23 Y38.254 E55.37665
G1 X192.894 Y38.986 E55.40335
G1 X193.326 Y39.512 E55.42175
G1 X193.905 Y40.291 E55.44798
G1 X194.298 Y40.879 E55.46709
G1 X194.798 Y41.717 E55.49346
G1 X195.114 Y42.31 E55.51162
G1 X195.534 Y43.198 E55.53817
G1 X195.799 Y43.838 E55.55688
G1 X196.129 Y44.763 E55.58343
G1 X196.324 Y45.408 E55.60163
G1 X196.561 Y46.351 E55.62791
G1 X196.697 Y47.034 E55.64673
G1 X196.84 Y48.003 E55.6732
G1 X196.906 Y48.678 E55.69153
G1 X196.954 Y49.649 E55.7178
G1 X196.963 Y49.994 E55.72713
G1 X196.963 Y179.996 E59.24028
G1 X196.954 Y180.342 E59.24964
G1 X196.905 Y181.329 E59.27634
G1 X196.838 Y182.009 E59.29481
G1 X196.694 Y182.979 E59.32131
G1 X196.56 Y183.655 E59.33993
G1 X196.323 Y184.599 E59.36623
G1 X196.122 Y185.258 E59.38485
G1 X195.79 Y186.183 E59.41141
G1 X195.529 Y186.813 E59.42984
G1 X195.109 Y187.7 E59.45636
G1 X194.788 Y188.299 E59.47472
G1 X194.288 Y189.134 E59.50103
G1 X193.904 Y189.709 E59.51971
G1 X193.325 Y190.489 E59.54596
G1 X192.887 Y191.022 E59.56461
G1 X192.224 Y191.752 E59.59125
G1 X191.746 Y192.23 E59.60952
G1 X191.014 Y192.894 E59.63623
G1 X190.485 Y193.328 E59.65472
G1 X189.704 Y193.908 E59.68101
G1 X189.12 Y194.298 E59.69999
G1 X188.284 Y194.797 E59.7263
G1 X187.69 Y195.114 E59.74449
G1 X186.802 Y195.534 E59.77104
G1 X186.162 Y195.799 E59.78976
G1 X185.237 Y196.129 E59.8163
G1 X184.592 Y196.324 E59.83451
G1 X183.649 Y196.561 E59.86078
G1 X182.964 Y196.697 E59.87966
G1 X181.993 Y196.84 E59.90618
G1 X181.318 Y196.907 E59.92451
G1 X180.34 Y196.955 E59.95097
G1 X179.997 Y196.963 E59.96024
G1 X50.004 Y196.963 E63.47316
G1 X49.658 Y196.954 E63.48251
G1 X48.671 Y196.905 E63.50922
G1 X47.991 Y196.838 E63.52768
G1 X47.021 Y196.694 E63.55418
G1 X46.345 Y196.56 E63.5728
G1 X45.401 Y196.323 E63.59911
G1 X44.742 Y196.122 E63.61773
G1 X43.817 Y195.79 E63.64428
G1 X43.187 Y195.529 E63.66271
G1 X42.3 Y195.109 E63.68923
G1 X41.701 Y194.788 E63.7076
G1 X40.866 Y194.288 E63.7339
G1 X40.29 Y193.903 E63.75262
G1 X39.509 Y193.323 E63.77891
G1 X38.976 Y192.886 E63.79754
G1 X38.245 Y192.222 E63.82422
G1 X37.768 Y191.744 E63.84247
G1 X37.105 Y191.013 E63.86914
G1 X36.67 Y190.483 E63.88767
G1 X36.091 Y189.703 E63.91392
G1 X35.702 Y189.12 E63.93286
G1 X35.203 Y188.284 E63.95917
G1 X34.886 Y187.69 E63.97737
G1 X34.465 Y186.8 E64.00398
G1 X34.2 Y186.158 E64.02274
