;FLAVOR:Marlin
;TIME:1232
;Filament used: 0.458411m
;Layer height: 0.15
;MINX:97.037
;MINY:98.037
;MINZ:0.2
;MAXX:132.963
;MAXY:131.963
;MAXZ:14
;Generated with Cura_SteamEngine 4.8.0
M140 S60
M105
M190 S60
M104 S195
M105
M109 S195
M82 ;absolute extrusion mode
G28 ;Home
G1 Z50 F6000 ;Move the platform down 15mm
;Prime the extruder
G92 E0
G1 F200 E3
G92 E0
G92 E0
G92 E0
G1 F1500 E-6.5
;LAYER_COUNT:93
;LAYER:0
M107 P1
G0 F3000 X99.463 Y100.277 Z0.2
;TYPE:SKIRT
G1 F1500 E0
G1 F1200 X100.064 Y99.752 E0.02157
G1 X100.714 Y99.289 E0.04313
G1 X101.407 Y98.894 E0.06469
G1 X102.136 Y98.57 E0.08625
G1 X102.894 Y98.321 E0.10781
G1 X103.673 Y98.148 E0.12937
G1 X104.466 Y98.055 E0.15095
G1 X105 Y98.037 E0.16539
G1 X125 Y98.037 E0.70586
G1 X125.797 Y98.077 E0.72743
G1 X126.586 Y98.196 E0.74899
G1 X127.359 Y98.394 E0.77056
G1 X128.108 Y98.669 E0.79212
G1 X128.826 Y99.016 E0.81367
G1 X129.506 Y99.434 E0.83524
G1 X130.14 Y99.918 E0.85679
G1 X130.723 Y100.463 E0.87836
G1 X131.248 Y101.064 E0.89993
G1 X131.711 Y101.714 E0.92149
G1 X132.106 Y102.407 E0.94305
G1 X132.43 Y103.136 E0.96461
G1 X132.679 Y103.894 E0.98617
G1 X132.852 Y104.673 E1.00773
G1 X132.945 Y105.466 E1.02931
G1 X132.963 Y106 E1.04375
G1 X132.963 Y124 E1.53018
G1 X132.923 Y124.797 E1.55174
G1 X132.804 Y125.586 E1.57331
G1 X132.606 Y126.359 E1.59487
G1 X132.331 Y127.108 E1.61643
G1 X131.984 Y127.826 E1.63798
G1 X131.566 Y128.506 E1.65955
G1 X131.082 Y129.14 E1.68111
G1 X130.537 Y129.723 E1.70267
G1 X129.936 Y130.248 E1.72424
G1 X129.286 Y130.711 E1.74581
G1 X128.593 Y131.106 E1.76736
G1 X127.864 Y131.43 E1.78892
G1 X127.106 Y131.679 E1.81048
G1 X126.327 Y131.852 E1.83205
G1 X125.534 Y131.945 E1.85362
G1 X125 Y131.963 E1.86806
G1 X105 Y131.963 E2.40854
G1 X104.203 Y131.923 E2.4301
G1 X103.414 Y131.804 E2.45167
G1 X102.641 Y131.606 E2.47323
G1 X101.892 Y131.331 E2.49479
G1 X101.174 Y130.984 E2.51634
G1 X100.494 Y130.566 E2.53791
G1 X99.86 Y130.082 E2.55947
G1 X99.277 Y129.537 E2.58104
G1 X98.752 Y128.936 E2.6026
G1 X98.289 Y128.286 E2.62417
G1 X97.894 Y127.593 E2.64572
G1 X97.57 Y126.864 E2.66728
G1 X97.321 Y126.106 E2.68884
G1 X97.148 Y125.327 E2.71041
G1 X97.055 Y124.534 E2.73198
G1 X97.037 Y124 E2.74642
G1 X97.037 Y106 E3.23285
G1 X97.077 Y105.203 E3.25442
G1 X97.196 Y104.414 E3.27598
G1 X97.394 Y103.641 E3.29754
G1 X97.669 Y102.892 E3.31911
G1 X98.016 Y102.174 E3.34066
G1 X98.434 Y101.494 E3.36223
G1 X98.918 Y100.86 E3.38378
G1 X99.463 Y100.277 E3.40535
G0 F3000 X99.783 Y100.422
G1 F1200 X100.38 Y99.918 E3.42646
G1 X101.026 Y99.478 E3.44758
G1 X101.713 Y99.106 E3.4687
G1 X102.434 Y98.806 E3.4898
G1 X103.183 Y98.581 E3.51094
G1 X103.95 Y98.434 E3.53204
G1 X105 Y98.362 E3.56048
G1 X125 Y98.362 E4.10096
G1 X125.78 Y98.402 E4.12206
G1 X126.553 Y98.521 E4.1432
G1 X127.309 Y98.719 E4.16432
G1 X128.04 Y98.993 E4.18542
G1 X128.74 Y99.341 E4.20654
G1 X129.401 Y99.758 E4.22766
G1 X130.016 Y100.24 E4.24878
G1 X130.578 Y100.783 E4.2699
G1 X131.082 Y101.38 E4.29101
G1 X131.522 Y102.026 E4.31213
G1 X131.894 Y102.713 E4.33324
G1 X132.194 Y103.434 E4.35435
G1 X132.419 Y104.183 E4.37548
G1 X132.566 Y104.95 E4.39659
G1 X132.638 Y106 E4.42503
G1 X132.638 Y124 E4.91146
G1 X132.598 Y124.78 E4.93256
G1 X132.479 Y125.553 E4.9537
G1 X132.281 Y126.309 E4.97482
G1 X132.007 Y127.04 E4.99592
G1 X131.659 Y127.74 E5.01704
G1 X131.242 Y128.401 E5.03816
G1 X130.76 Y129.016 E5.05928
G1 X130.217 Y129.578 E5.0804
G1 X129.62 Y130.082 E5.10151
G1 X128.974 Y130.522 E5.12263
G1 X128.287 Y130.894 E5.14374
G1 X127.566 Y131.194 E5.16485
G1 X126.817 Y131.419 E5.18598
G1 X126.05 Y131.566 E5.20709
G1 X125 Y131.638 E5.23553
G1 X105 Y131.638 E5.776
G1 X104.22 Y131.598 E5.79711
G1 X103.447 Y131.479 E5.81825
G1 X102.691 Y131.281 E5.83937
G1 X101.96 Y131.007 E5.86046
G1 X101.26 Y130.659 E5.88159
G1 X100.599 Y130.242 E5.90271
G1 X99.984 Y129.76 E5.92382
G1 X99.422 Y129.217 E5.94494
G1 X98.918 Y128.62 E5.96606
G1 X98.478 Y127.974 E5.98718
G1 X98.106 Y127.287 E6.00829
G1 X97.806 Y126.566 E6.02939
G1 X97.581 Y125.817 E6.05053
G1 X97.434 Y125.05 E6.07163
G1 X97.362 Y124 E6.10007
G1 X97.362 Y106 E6.5865
G1 X97.402 Y105.22 E6.60761
G1 X97.521 Y104.447 E6.62875
G1 X97.719 Y103.691 E6.64986
G1 X97.993 Y102.96 E6.67096
G1 X98.341 Y102.26 E6.69209
G1 X98.758 Y101.599 E6.71321
G1 X99.24 Y100.984 E6.73432
G1 X99.783 Y100.422 E6.75544
G0 F3000 X100.102 Y100.57
G1 F1200 X100.695 Y100.088 E6.77609
G1 X101.336 Y99.671 E6.79676
G1 X102.017 Y99.323 E6.81742
G1 X102.73 Y99.048 E6.83808
G1 X103.469 Y98.849 E6.85876
G1 X104.224 Y98.728 E6.87942
G1 X105 Y98.687 E6.90042
G1 X125 Y98.687 E7.4409
G1 X125.764 Y98.727 E7.46157
G1 X126.519 Y98.846 E7.48223
G1 X127.257 Y99.044 E7.50288
G1 X127.971 Y99.318 E7.52354
G1 X128.653 Y99.665 E7.54422
G1 X129.294 Y100.081 E7.56487
G1 X129.889 Y100.561 E7.58553
G1 X130.43 Y101.102 E7.60621
G1 X130.912 Y101.695 E7.62686
G1 X131.329 Y102.336 E7.64752
G1 X131.677 Y103.017 E7.66819
G1 X131.952 Y103.73 E7.68884
G1 X132.151 Y104.469 E7.70952
G1 X132.272 Y105.224 E7.73019
G1 X132.313 Y106 E7.75119
G1 X132.313 Y124 E8.23762
G1 X132.273 Y124.764 E8.25829
G1 X132.154 Y125.519 E8.27895
G1 X131.956 Y126.257 E8.2996
G1 X131.682 Y126.971 E8.32026
G1 X131.335 Y127.653 E8.34094
G1 X130.919 Y128.294 E8.36159
G1 X130.439 Y128.889 E8.38225
G1 X129.898 Y129.43 E8.40293
G1 X129.305 Y129.912 E8.42358
G1 X128.664 Y130.329 E8.44424
G1 X127.983 Y130.677 E8.46491
G1 X127.27 Y130.952 E8.48556
G1 X126.531 Y131.151 E8.50624
G1 X125.776 Y131.272 E8.52691
G1 X125 Y131.313 E8.54791
G1 X105 Y131.313 E9.08838
G1 X104.236 Y131.273 E9.10906
G1 X103.481 Y131.154 E9.12971
G1 X102.743 Y130.956 E9.15036
G1 X102.029 Y130.682 E9.17103
G1 X101.347 Y130.335 E9.19171
G1 X100.706 Y129.919 E9.21236
G1 X100.111 Y129.439 E9.23302
G1 X99.57 Y128.898 E9.25369
G1 X99.088 Y128.305 E9.27434
G1 X98.671 Y127.664 E9.29501
G1 X98.323 Y126.983 E9.31568
G1 X98.048 Y126.27 E9.33633
G1 X97.849 Y125.531 E9.35701
G1 X97.728 Y124.776 E9.37767
G1 X97.687 Y124 E9.39867
G1 X97.687 Y106 E9.8851
G1 X97.727 Y105.236 E9.90578
G1 X97.846 Y104.481 E9.92643
G1 X98.044 Y103.743 E9.94708
G1 X98.318 Y103.029 E9.96775
G1 X98.665 Y102.347 E9.98843
G1 X99.081 Y101.706 E10.00908
G1 X99.561 Y101.111 E10.02974
G1 X100.102 Y100.57 E10.05041
G0 F3000 X99.882 Y101.242
G1 F1200 X100.42 Y100.722 E10.07063
G1 X101.01 Y100.263 E10.09083
G1 X101.645 Y99.87 E10.11101
G1 X102.319 Y99.547 E10.13121
G1 X103.024 Y99.297 E10.15142
G1 X103.751 Y99.124 E10.17162
G1 X104.493 Y99.03 E10.19183
G1 X105 Y99.012 E10.20554
G1 X125 Y99.012 E10.74602
G1 X125.746 Y99.052 E10.76621
G1 X126.484 Y99.171 E10.78641
G1 X127.205 Y99.369 E10.80661
G1 X127.901 Y99.642 E10.82682
G1 X128.563 Y99.989 E10.84702
G1 X129.185 Y100.404 E10.86722
G1 X129.758 Y100.882 E10.88739
G1 X130.278 Y101.42 E10.90761
G1 X130.737 Y102.01 E10.92781
G1 X131.13 Y102.645 E10.94799
G1 X131.453 Y103.319 E10.96819
G1 X131.703 Y104.024 E10.9884
G1 X131.876 Y104.751 E11.0086
G1 X131.97 Y105.493 E11.02881
G1 X131.988 Y106 E11.04252
G1 X131.988 Y124 E11.52895
G1 X131.948 Y124.746 E11.54914
G1 X131.829 Y125.484 E11.56934
G1 X131.631 Y126.205 E11.58954
G1 X131.358 Y126.901 E11.60975
G1 X131.011 Y127.563 E11.62995
G1 X130.596 Y128.185 E11.65015
G1 X130.118 Y128.758 E11.67032
G1 X129.58 Y129.278 E11.69054
G1 X128.99 Y129.737 E11.71074
G1 X128.355 Y130.13 E11.73092
G1 X127.681 Y130.453 E11.75112
G1 X126.976 Y130.703 E11.77133
G1 X126.249 Y130.876 E11.79153
G1 X125.507 Y130.97 E11.81174
G1 X125 Y130.988 E11.82545
G1 X105 Y130.988 E12.36592
G1 X104.254 Y130.948 E12.38611
G1 X103.516 Y130.829 E12.40631
G1 X102.795 Y130.631 E12.42652
G1 X102.099 Y130.358 E12.44672
G1 X101.437 Y130.011 E12.46692
G1 X100.815 Y129.596 E12.48713
G1 X100.242 Y129.118 E12.50729
G1 X99.722 Y128.58 E12.52751
G1 X99.263 Y127.99 E12.54772
G1 X98.87 Y127.355 E12.5679
G1 X98.547 Y126.681 E12.58809
G1 X98.297 Y125.976 E12.60831
G1 X98.124 Y125.249 E12.6285
G1 X98.03 Y124.507 E12.64871
G1 X98.012 Y124 E12.66242
G1 X98.012 Y106 E13.14885
G1 X98.052 Y105.254 E13.16904
G1 X98.171 Y104.516 E13.18924
G1 X98.369 Y103.795 E13.20945
G1 X98.642 Y103.099 E13.22965
G1 X98.989 Y102.437 E13.24985
G1 X99.404 Y101.815 E13.27006
G1 X99.882 Y101.242 E13.29022
G0 F3000 X100.203 Y101.375
G1 F1200 X100.738 Y100.879 E13.30994
G1 X101.323 Y100.443 E13.32966
G1 X101.953 Y100.074 E13.34939
G1 X102.62 Y99.777 E13.36912
G1 X103.315 Y99.554 E13.38884
G1 X104.03 Y99.408 E13.40856
G1 X105 Y99.337 E13.43485
G1 X125 Y99.337 E13.97532
G1 X125.729 Y99.377 E13.99505
G1 X126.449 Y99.496 E14.01477
G1 X127.151 Y99.694 E14.03448
G1 X127.828 Y99.967 E14.05421
G1 X128.471 Y100.312 E14.07393
G1 X129.072 Y100.726 E14.09365
G1 X129.625 Y101.203 E14.11339
G1 X130.121 Y101.738 E14.1331
G1 X130.557 Y102.323 E14.15282
G1 X130.926 Y102.953 E14.17255
G1 X131.223 Y103.62 E14.19228
G1 X131.446 Y104.315 E14.21201
G1 X131.592 Y105.03 E14.23173
G1 X131.663 Y106 E14.25801
G1 X131.663 Y124 E14.74444
G1 X131.623 Y124.729 E14.76417
G1 X131.504 Y125.449 E14.78389
G1 X131.306 Y126.151 E14.8036
G1 X131.033 Y126.828 E14.82333
G1 X130.688 Y127.471 E14.84305
G1 X130.274 Y128.072 E14.86277
G1 X129.797 Y128.625 E14.88251
G1 X129.262 Y129.121 E14.90222
G1 X128.677 Y129.557 E14.92194
G1 X128.047 Y129.926 E14.94167
G1 X127.38 Y130.223 E14.9614
G1 X126.685 Y130.446 E14.98112
G1 X125.97 Y130.592 E15.00084
G1 X125 Y130.663 E15.02713
G1 X105 Y130.663 E15.5676
G1 X104.271 Y130.623 E15.58733
G1 X103.551 Y130.504 E15.60706
G1 X102.849 Y130.306 E15.62677
G1 X102.172 Y130.033 E15.64649
G1 X101.529 Y129.688 E15.66621
G1 X100.928 Y129.274 E15.68593
G1 X100.375 Y128.797 E15.70567
G1 X99.879 Y128.262 E15.72539
G1 X99.443 Y127.677 E15.7451
G1 X99.074 Y127.047 E15.76483
G1 X98.777 Y126.38 E15.78456
G1 X98.554 Y125.685 E15.80429
G1 X98.408 Y124.97 E15.82401
G1 X98.337 Y124 E15.85029
G1 X98.337 Y106 E16.33672
G1 X98.377 Y105.271 E16.35645
G1 X98.496 Y104.551 E16.37617
G1 X98.694 Y103.849 E16.39588
G1 X98.967 Y103.172 E16.41561
G1 X99.312 Y102.529 E16.43533
G1 X99.726 Y101.928 E16.45505
G1 X100.203 Y101.375 E16.47479
G0 F3000 X100.524 Y101.513
G1 F1200 X101.055 Y101.04 E16.494
G1 X101.636 Y100.628 E16.51325
G1 X102.259 Y100.285 E16.53247
G1 X102.917 Y100.014 E16.5517
G1 X103.602 Y99.818 E16.57096
G1 X104.304 Y99.7 E16.59019
G1 X105 Y99.662 E16.60903
G1 X125 Y99.662 E17.14951
G1 X125.711 Y99.702 E17.16875
G1 X126.412 Y99.821 E17.18797
G1 X127.096 Y100.019 E17.20721
G1 X127.754 Y100.291 E17.22645
G1 X128.376 Y100.636 E17.24567
G1 X128.957 Y101.049 E17.26494
G1 X129.487 Y101.524 E17.28417
G1 X129.96 Y102.055 E17.30339
G1 X130.372 Y102.636 E17.32263
G1 X130.715 Y103.259 E17.34185
G1 X130.986 Y103.917 E17.36108
G1 X131.182 Y104.602 E17.38034
G1 X131.3 Y105.304 E17.39957
G1 X131.338 Y106 E17.41841
G1 X131.338 Y124 E17.90484
G1 X131.298 Y124.711 E17.92408
G1 X131.179 Y125.412 E17.9433
G1 X130.981 Y126.096 E17.96254
G1 X130.709 Y126.754 E17.98178
G1 X130.364 Y127.376 E18.001
G1 X129.951 Y127.957 E18.02027
G1 X129.476 Y128.487 E18.0395
G1 X128.945 Y128.96 E18.05872
G1 X128.364 Y129.372 E18.07797
G1 X127.741 Y129.715 E18.09719
G1 X127.083 Y129.986 E18.11642
G1 X126.398 Y130.182 E18.13567
G1 X125.696 Y130.3 E18.15491
G1 X125 Y130.338 E18.17374
G1 X105 Y130.338 E18.71422
G1 X104.289 Y130.298 E18.73347
G1 X103.588 Y130.179 E18.75268
G1 X102.904 Y129.981 E18.77192
G1 X102.246 Y129.709 E18.79116
G1 X101.624 Y129.364 E18.81039
G1 X101.043 Y128.951 E18.82965
G1 X100.513 Y128.476 E18.84888
G1 X100.04 Y127.945 E18.8681
G1 X99.628 Y127.364 E18.88735
G1 X99.285 Y126.741 E18.90657
G1 X99.014 Y126.083 E18.9258
G1 X98.818 Y125.398 E18.94505
G1 X98.7 Y124.696 E18.96429
G1 X98.662 Y124 E18.98312
G1 X98.662 Y106 E19.46955
G1 X98.702 Y105.289 E19.4888
G1 X98.821 Y104.588 E19.50801
G1 X99.019 Y103.904 E19.52726
G1 X99.291 Y103.246 E19.5465
G1 X99.636 Y102.624 E19.56572
G1 X100.049 Y102.043 E19.58498
G1 X100.524 Y101.513 E19.60422
G0 F3000 X100.843 Y101.655
G1 F1200 X101.371 Y101.206 E19.62295
G1 X101.947 Y100.82 E19.64168
G1 X102.564 Y100.503 E19.66043
G1 X103.213 Y100.259 E19.67917
G1 X103.885 Y100.091 E19.69788
G1 X104.573 Y100.002 E19.71663
G1 X105 Y99.987 E19.72818
G1 X125 Y99.987 E20.26866
G1 X125.692 Y100.027 E20.28739
G1 X126.375 Y100.146 E20.30612
G1 X127.04 Y100.344 E20.32487
G1 X127.677 Y100.616 E20.34359
G1 X128.279 Y100.96 E20.36233
G1 X128.838 Y101.371 E20.38108
G1 X129.345 Y101.843 E20.3998
G1 X129.794 Y102.371 E20.41853
G1 X130.18 Y102.947 E20.43727
G1 X130.497 Y103.564 E20.45601
G1 X130.741 Y104.213 E20.47475
G1 X130.909 Y104.885 E20.49347
G1 X130.998 Y105.573 E20.51221
G1 X131.013 Y106 E20.52376
G1 X131.013 Y124 E21.01019
G1 X130.973 Y124.692 E21.02892
G1 X130.854 Y125.375 E21.04766
G1 X130.656 Y126.04 E21.06641
G1 X130.384 Y126.677 E21.08513
G1 X130.04 Y127.279 E21.10386
G1 X129.629 Y127.838 E21.12261
G1 X129.157 Y128.345 E21.14133
G1 X128.629 Y128.794 E21.16006
G1 X128.053 Y129.18 E21.1788
G1 X127.436 Y129.497 E21.19755
G1 X126.787 Y129.741 E21.21628
G1 X126.115 Y129.909 E21.235
G1 X125.427 Y129.998 E21.25375
G1 X125 Y130.013 E21.2653
G1 X105 Y130.013 E21.80577
G1 X104.308 Y129.973 E21.8245
G1 X103.625 Y129.854 E21.84324
G1 X102.96 Y129.656 E21.86199
G1 X102.323 Y129.384 E21.88071
G1 X101.721 Y129.04 E21.89945
G1 X101.162 Y128.629 E21.9182
G1 X100.655 Y128.157 E21.93691
G1 X100.206 Y127.629 E21.95564
G1 X99.82 Y127.053 E21.97438
G1 X99.503 Y126.436 E21.99313
G1 X99.259 Y125.787 E22.01187
G1 X99.091 Y125.115 E22.03058
G1 X99.002 Y124.427 E22.04933
G1 X98.987 Y124 E22.06088
G1 X98.987 Y106 E22.54731
G1 X99.027 Y105.308 E22.56604
G1 X99.146 Y104.625 E22.58477
G1 X99.344 Y103.96 E22.60352
G1 X99.616 Y103.323 E22.62224
G1 X99.96 Y102.721 E22.64098
G1 X100.371 Y102.162 E22.65973
G1 X100.843 Y101.655 E22.67845
G0 F3000 X101.163 Y101.802
G1 F1200 X101.686 Y101.377 E22.69666
G1 X102.257 Y101.017 E22.7149
G1 X102.866 Y100.728 E22.73312
G1 X103.504 Y100.512 E22.75132
G1 X104.164 Y100.374 E22.76954
G1 X105 Y100.312 E22.7922
G1 X125 Y100.312 E23.33267
G1 X125.673 Y100.352 E23.35089
G1 X126.337 Y100.471 E23.36912
G1 X126.982 Y100.668 E23.38735
G1 X127.599 Y100.94 E23.40557
G1 X128.179 Y101.283 E23.42378
G1 X128.715 Y101.693 E23.44202
G1 X129.198 Y102.163 E23.46023
G1 X129.623 Y102.686 E23.47844
G1 X129.983 Y103.257 E23.49668
G1 X130.272 Y103.866 E23.5149
G1 X130.488 Y104.504 E23.5331
G1 X130.626 Y105.164 E23.55132
G1 X130.688 Y106 E23.57398
G1 X130.688 Y124 E24.06041
G1 X130.648 Y124.673 E24.07862
G1 X130.529 Y125.337 E24.09685
G1 X130.332 Y125.982 E24.11508
G1 X130.06 Y126.599 E24.1333
G1 X129.717 Y127.179 E24.15151
G1 X129.307 Y127.715 E24.16975
G1 X128.837 Y128.198 E24.18796
G1 X128.314 Y128.623 E24.20617
G1 X127.743 Y128.983 E24.22441
G1 X127.134 Y129.272 E24.24263
G1 X126.496 Y129.488 E24.26083
G1 X125.836 Y129.626 E24.27905
G1 X125 Y129.688 E24.30171
G1 X105 Y129.688 E24.84219
G1 X104.327 Y129.648 E24.8604
G1 X103.663 Y129.529 E24.87863
G1 X103.018 Y129.332 E24.89686
G1 X102.401 Y129.06 E24.91508
G1 X101.821 Y128.717 E24.93329
G1 X101.285 Y128.307 E24.95153
G1 X100.802 Y127.837 E24.96974
G1 X100.377 Y127.314 E24.98795
G1 X100.017 Y126.743 E25.00619
G1 X99.728 Y126.134 E25.02441
G1 X99.512 Y125.496 E25.04261
G1 X99.374 Y124.836 E25.06083
G1 X99.312 Y124 E25.08349
G1 X99.312 Y106 E25.56992
G1 X99.352 Y105.327 E25.58814
G1 X99.471 Y104.663 E25.60637
G1 X99.668 Y104.018 E25.62459
G1 X99.94 Y103.401 E25.64281
G1 X100.283 Y102.821 E25.66102
G1 X100.693 Y102.285 E25.67926
G1 X101.163 Y101.802 E25.69747
G0 F3000 X101.481 Y101.953
G1 F1200 X102 Y101.554 E25.71516
G1 X102.564 Y101.222 E25.73285
G1 X103.165 Y100.961 E25.75056
G1 X103.793 Y100.775 E25.76825
G1 X104.438 Y100.667 E25.78593
G1 X105 Y100.637 E25.80114
G1 X125 Y100.637 E26.34161
G1 X125.653 Y100.677 E26.35929
G1 X126.297 Y100.796 E26.37699
G1 X126.922 Y100.993 E26.3947
G1 X127.517 Y101.265 E26.41238
G1 X128.076 Y101.607 E26.43009
G1 X128.588 Y102.014 E26.44777
G1 X129.047 Y102.481 E26.46546
G1 X129.446 Y103 E26.48315
G1 X129.778 Y103.564 E26.50084
G1 X130.039 Y104.165 E26.51854
G1 X130.225 Y104.793 E26.53624
G1 X130.333 Y105.438 E26.55392
G1 X130.363 Y106 E26.56913
G1 X130.363 Y124 E27.05556
G1 X130.323 Y124.653 E27.07324
