;FLAVOR:Marlin
;TIME:12683
;Filament used: 5.61964m
;Layer height: 0.15
;MINX:87.062
;MINY:36.562
;MINZ:0.2
;MAXX:142.938
;MAXY:193.438
;MAXZ:12.95
;Generated with Cura_SteamEngine 4.8.0
M140 S60
M105
M190 S60
M104 S195
M105
M109 S195
M82 ;absolute extrusion mode
G28 ;Home
G1 Z50 F6000 ;Move the platform down 15mm
;Prime the extruder
G92 E0
G1 F200 E3
G92 E0
G92 E0
G92 E0
G1 F1500 E-6.5
;LAYER_COUNT:86
;LAYER:0
M107 P1
M204 S5000
G0 F2880 X87.694 Y41.512 Z0.2
M204 S3000
;TYPE:SKIRT
G1 F1500 E0
G1 F1200 X88.041 Y40.794 E0.02155
G1 X88.459 Y40.114 E0.04312
G1 X88.943 Y39.48 E0.06468
G1 X89.394 Y38.989 E0.08269
G1 X89.489 Y38.894 E0.08632
G1 X90.081 Y38.359 E0.10789
G1 X90.723 Y37.886 E0.12944
G1 X91.41 Y37.479 E0.15101
G1 X92.134 Y37.143 E0.17258
G1 X92.887 Y36.881 E0.19413
G1 X93.664 Y36.696 E0.21571
G1 X94.454 Y36.59 E0.23725
G1 X95.12 Y36.562 E0.25527
G1 X134.88 Y36.562 E1.32974
G1 X135.677 Y36.602 E1.3513
G1 X136.466 Y36.721 E1.37286
G1 X137.239 Y36.919 E1.39443
G1 X137.988 Y37.194 E1.41599
G1 X138.706 Y37.541 E1.43754
G1 X139.386 Y37.959 E1.45911
G1 X140.02 Y38.443 E1.48067
G1 X140.511 Y38.894 E1.49868
G1 X140.606 Y38.989 E1.50231
G1 X141.141 Y39.581 E1.52388
G1 X141.614 Y40.223 E1.54543
G1 X142.021 Y40.91 E1.56701
G1 X142.357 Y41.634 E1.58858
G1 X142.619 Y42.387 E1.61012
G1 X142.804 Y43.164 E1.63171
G1 X142.91 Y43.954 E1.65325
G1 X142.938 Y44.62 E1.67126
G1 X142.938 Y185.38 E5.47514
G1 X142.898 Y186.177 E5.4967
G1 X142.779 Y186.966 E5.51827
G1 X142.581 Y187.739 E5.53983
G1 X142.306 Y188.488 E5.56139
G1 X141.959 Y189.206 E5.58294
G1 X141.541 Y189.886 E5.60451
G1 X141.057 Y190.52 E5.62607
G1 X140.606 Y191.011 E5.64408
G1 X140.511 Y191.106 E5.64771
G1 X139.919 Y191.641 E5.66928
G1 X139.277 Y192.114 E5.69083
G1 X138.59 Y192.521 E5.71241
G1 X137.866 Y192.857 E5.73398
G1 X137.113 Y193.119 E5.75552
G1 X136.336 Y193.304 E5.77711
G1 X135.546 Y193.41 E5.79865
G1 X134.88 Y193.438 E5.81666
G1 X95.12 Y193.438 E6.89113
G1 X94.323 Y193.398 E6.91269
G1 X93.534 Y193.279 E6.93426
G1 X92.761 Y193.081 E6.95582
G1 X92.012 Y192.806 E6.97738
G1 X91.294 Y192.459 E6.99893
G1 X90.614 Y192.041 E7.0205
G1 X89.98 Y191.557 E7.04206
G1 X89.489 Y191.106 E7.06007
G1 X89.394 Y191.011 E7.06371
G1 X88.859 Y190.419 E7.08527
G1 X88.386 Y189.777 E7.10682
G1 X87.979 Y189.09 E7.1284
G1 X87.643 Y188.366 E7.14997
G1 X87.381 Y187.613 E7.17151
G1 X87.196 Y186.836 E7.1931
G1 X87.09 Y186.046 E7.21464
G1 X87.062 Y185.38 E7.23265
G1 X87.062 Y44.62 E11.03653
G1 X87.102 Y43.823 E11.05809
G1 X87.221 Y43.034 E11.07966
G1 X87.419 Y42.261 E11.10122
G1 X87.694 Y41.512 E11.12278
M204 S5000
G0 F2880 X88.018 Y41.58
M204 S3000
G1 F1200 X88.366 Y40.88 E11.14391
G1 X88.783 Y40.219 E11.16503
G1 X89.265 Y39.604 E11.18614
G1 X89.624 Y39.219 E11.20037
G1 X89.719 Y39.124 E11.204
G1 X90.299 Y38.601 E11.22511
G1 X90.93 Y38.139 E11.24624
G1 X91.604 Y37.744 E11.26735
G1 X92.315 Y37.421 E11.28846
G1 X93.056 Y37.171 E11.30959
G1 X93.818 Y36.999 E11.3307
G1 X94.594 Y36.905 E11.35182
G1 X95.12 Y36.887 E11.36605
G1 X134.88 Y36.887 E12.44051
G1 X135.66 Y36.927 E12.46162
G1 X136.433 Y37.046 E12.48276
G1 X137.189 Y37.244 E12.50388
G1 X137.92 Y37.518 E12.52497
G1 X138.62 Y37.866 E12.5461
G1 X139.281 Y38.283 E12.56722
G1 X139.896 Y38.765 E12.58833
G1 X140.281 Y39.124 E12.60256
G1 X140.376 Y39.219 E12.60619
G1 X140.899 Y39.799 E12.62729
G1 X141.361 Y40.43 E12.64843
G1 X141.756 Y41.104 E12.66954
G1 X142.079 Y41.815 E12.69064
G1 X142.329 Y42.556 E12.71178
G1 X142.501 Y43.318 E12.73289
G1 X142.595 Y44.094 E12.75401
G1 X142.613 Y44.62 E12.76823
G1 X142.613 Y185.38 E16.57211
G1 X142.573 Y186.16 E16.59322
G1 X142.454 Y186.933 E16.61435
G1 X142.256 Y187.689 E16.63547
G1 X141.982 Y188.42 E16.65657
G1 X141.634 Y189.12 E16.6777
G1 X141.217 Y189.781 E16.69882
G1 X140.735 Y190.396 E16.71993
G1 X140.376 Y190.781 E16.73416
G1 X140.281 Y190.876 E16.73779
G1 X139.701 Y191.399 E16.75889
G1 X139.07 Y191.861 E16.78003
G1 X138.396 Y192.256 E16.80114
G1 X137.685 Y192.579 E16.82224
G1 X136.944 Y192.829 E16.84338
G1 X136.182 Y193.001 E16.86449
G1 X135.406 Y193.095 E16.88561
G1 X134.88 Y193.113 E16.89983
G1 X95.12 Y193.113 E17.9743
G1 X94.34 Y193.073 E17.99541
G1 X93.567 Y192.954 E18.01654
G1 X92.811 Y192.756 E18.03766
G1 X92.08 Y192.482 E18.05876
G1 X91.38 Y192.134 E18.07988
G1 X90.719 Y191.717 E18.10101
G1 X90.104 Y191.235 E18.12212
G1 X89.719 Y190.876 E18.13635
G1 X89.624 Y190.781 E18.13998
G1 X89.101 Y190.201 E18.16108
G1 X88.639 Y189.57 E18.18222
G1 X88.244 Y188.896 E18.20333
G1 X87.921 Y188.185 E18.22443
G1 X87.671 Y187.444 E18.24557
G1 X87.499 Y186.682 E18.26668
G1 X87.405 Y185.906 E18.2878
G1 X87.387 Y185.38 E18.30202
G1 X87.387 Y44.62 E22.1059
G1 X87.427 Y43.84 E22.12701
G1 X87.546 Y43.067 E22.14814
G1 X87.744 Y42.311 E22.16926
G1 X88.018 Y41.58 E22.19036
M204 S5000
G0 F2880 X88.343 Y41.649
M204 S3000
G1 F1200 X88.69 Y40.967 E22.21104
G1 X89.106 Y40.326 E22.23169
G1 X89.586 Y39.731 E22.25235
G1 X89.949 Y39.354 E22.26649
G1 X90.517 Y38.842 E22.28715
G1 X91.136 Y38.393 E22.30782
G1 X91.798 Y38.01 E22.32849
G1 X92.496 Y37.699 E22.34914
G1 X93.223 Y37.462 E22.3698
G1 X93.971 Y37.303 E22.39047
G1 X94.731 Y37.222 E22.41112
G1 X95.12 Y37.212 E22.42164
G1 X134.88 Y37.212 E23.49611
G1 X135.644 Y37.252 E23.51678
G1 X136.399 Y37.371 E23.53744
G1 X137.137 Y37.569 E23.55808
G1 X137.851 Y37.843 E23.57875
G1 X138.533 Y38.19 E23.59943
G1 X139.174 Y38.606 E23.62008
G1 X139.769 Y39.086 E23.64074
G1 X140.146 Y39.449 E23.65488
G1 X140.658 Y40.017 E23.67555
G1 X141.107 Y40.636 E23.69621
G1 X141.49 Y41.298 E23.71688
G1 X141.801 Y41.996 E23.73753
G1 X142.038 Y42.723 E23.7582
G1 X142.197 Y43.471 E23.77886
G1 X142.278 Y44.231 E23.79952
G1 X142.288 Y44.62 E23.81003
G1 X142.288 Y185.38 E27.61391
G1 X142.248 Y186.144 E27.63458
G1 X142.129 Y186.899 E27.65524
G1 X141.931 Y187.637 E27.67589
G1 X141.657 Y188.351 E27.69656
G1 X141.31 Y189.033 E27.71723
G1 X140.894 Y189.674 E27.73788
G1 X140.414 Y190.269 E27.75854
G1 X140.051 Y190.646 E27.77269
G1 X139.483 Y191.158 E27.79335
G1 X138.864 Y191.607 E27.81402
G1 X138.202 Y191.99 E27.83468
G1 X137.504 Y192.301 E27.85534
G1 X136.777 Y192.538 E27.876
G1 X136.029 Y192.697 E27.89666
G1 X135.269 Y192.778 E27.91732
G1 X134.88 Y192.788 E27.92783
G1 X95.12 Y192.788 E29.0023
G1 X94.356 Y192.748 E29.02298
G1 X93.601 Y192.629 E29.04363
G1 X92.863 Y192.431 E29.06428
G1 X92.149 Y192.157 E29.08495
G1 X91.467 Y191.81 E29.10563
G1 X90.826 Y191.394 E29.12628
G1 X90.231 Y190.914 E29.14694
G1 X89.854 Y190.551 E29.16108
G1 X89.342 Y189.983 E29.18175
G1 X88.893 Y189.364 E29.20241
G1 X88.51 Y188.702 E29.22308
G1 X88.199 Y188.004 E29.24373
G1 X87.962 Y187.277 E29.26439
G1 X87.803 Y186.529 E29.28506
G1 X87.722 Y185.769 E29.30571
G1 X87.712 Y185.38 E29.31623
G1 X87.712 Y44.62 E33.12011
G1 X87.752 Y43.856 E33.14078
G1 X87.871 Y43.101 E33.16144
G1 X88.069 Y42.363 E33.18209
G1 X88.343 Y41.649 E33.20275
M204 S5000
G0 F2880 X88.667 Y41.719
M204 S3000
G1 F1200 X89.014 Y41.057 E33.22295
G1 X89.429 Y40.435 E33.24316
G1 X90.084 Y39.679 E33.27019
G1 X90.179 Y39.584 E33.27382
G1 X90.735 Y39.084 E33.29403
G1 X91.341 Y38.647 E33.31422
G1 X91.99 Y38.277 E33.33441
G1 X92.676 Y37.978 E33.35463
G1 X93.389 Y37.755 E33.37482
G1 X94.122 Y37.609 E33.39501
G1 X95.12 Y37.537 E33.42205
G1 X134.88 Y37.537 E34.49652
G1 X135.626 Y37.577 E34.51671
G1 X136.364 Y37.696 E34.53691
G1 X137.085 Y37.894 E34.55712
G1 X137.781 Y38.167 E34.57732
G1 X138.443 Y38.514 E34.59752
G1 X139.065 Y38.929 E34.61773
G1 X139.821 Y39.584 E34.64476
G1 X139.916 Y39.679 E34.64839
G1 X140.416 Y40.235 E34.6686
G1 X140.853 Y40.841 E34.68879
G1 X141.223 Y41.49 E34.70898
G1 X141.522 Y42.176 E34.7292
G1 X141.745 Y42.889 E34.74939
G1 X141.891 Y43.622 E34.76958
G1 X141.963 Y44.62 E34.79662
G1 X141.963 Y185.38 E38.6005
G1 X141.923 Y186.126 E38.62069
G1 X141.804 Y186.864 E38.64089
G1 X141.606 Y187.585 E38.6611
G1 X141.333 Y188.281 E38.6813
G1 X140.986 Y188.943 E38.7015
G1 X140.571 Y189.565 E38.72171
G1 X139.916 Y190.321 E38.74874
G1 X139.821 Y190.416 E38.75237
G1 X139.265 Y190.916 E38.77258
G1 X138.659 Y191.353 E38.79277
G1 X138.01 Y191.723 E38.81296
G1 X137.324 Y192.022 E38.83318
G1 X136.611 Y192.245 E38.85337
G1 X135.878 Y192.391 E38.87356
G1 X134.88 Y192.463 E38.9006
G1 X95.12 Y192.463 E39.97507
G1 X94.374 Y192.423 E39.99526
G1 X93.636 Y192.304 E40.01546
G1 X92.915 Y192.106 E40.03567
G1 X92.219 Y191.833 E40.05587
G1 X91.557 Y191.486 E40.07607
G1 X90.935 Y191.071 E40.09628
G1 X90.179 Y190.416 E40.12331
G1 X90.084 Y190.321 E40.12694
G1 X89.584 Y189.765 E40.14715
G1 X89.147 Y189.159 E40.16734
G1 X88.777 Y188.51 E40.18753
G1 X88.478 Y187.824 E40.20775
G1 X88.255 Y187.111 E40.22794
G1 X88.109 Y186.378 E40.24813
G1 X88.037 Y185.38 E40.27517
G1 X88.037 Y44.62 E44.07905
G1 X88.077 Y43.874 E44.09924
G1 X88.196 Y43.136 E44.11944
G1 X88.394 Y42.415 E44.13965
G1 X88.667 Y41.719 E44.15985
M204 S5000
G0 F2880 X88.992 Y41.792
M204 S3000
G1 F1200 X89.337 Y41.149 E44.17957
G1 X89.751 Y40.548 E44.19929
G1 X90.314 Y39.909 E44.22231
G1 X90.409 Y39.814 E44.22594
G1 X90.952 Y39.327 E44.24565
G1 X91.546 Y38.902 E44.26539
G1 X92.182 Y38.545 E44.2851
G1 X92.854 Y38.259 E44.30483
G1 X93.553 Y38.049 E44.32456
G1 X94.27 Y37.916 E44.34426
G1 X95.12 Y37.862 E44.36728
G1 X134.88 Y37.862 E45.44175
G1 X135.609 Y37.902 E45.46148
G1 X136.329 Y38.021 E45.4812
G1 X137.031 Y38.219 E45.50091
G1 X137.708 Y38.492 E45.52064
G1 X138.351 Y38.837 E45.54036
G1 X138.952 Y39.251 E45.56008
G1 X139.591 Y39.814 E45.58309
G1 X139.686 Y39.909 E45.58672
G1 X140.173 Y40.452 E45.60644
G1 X140.598 Y41.046 E45.62617
G1 X140.955 Y41.682 E45.64588
G1 X141.241 Y42.354 E45.66562
G1 X141.451 Y43.053 E45.68534
G1 X141.584 Y43.77 E45.70505
G1 X141.638 Y44.62 E45.72807
G1 X141.638 Y185.38 E49.53194
G1 X141.598 Y186.109 E49.55167
G1 X141.479 Y186.829 E49.5714
G1 X141.281 Y187.531 E49.59111
G1 X141.008 Y188.208 E49.61083
G1 X140.663 Y188.851 E49.63055
G1 X140.249 Y189.452 E49.65027
G1 X139.686 Y190.091 E49.67329
G1 X139.591 Y190.186 E49.67692
G1 X139.048 Y190.673 E49.69663
G1 X138.454 Y191.098 E49.71637
G1 X137.818 Y191.455 E49.73608
G1 X137.146 Y191.741 E49.75581
G1 X136.447 Y191.951 E49.77554
G1 X135.73 Y192.084 E49.79525
G1 X134.88 Y192.138 E49.81826
G1 X95.12 Y192.138 E50.89273
G1 X94.391 Y192.098 E50.91246
G1 X93.671 Y191.979 E50.93218
G1 X92.969 Y191.781 E50.95189
G1 X92.292 Y191.508 E50.97162
G1 X91.649 Y191.163 E50.99134
G1 X91.048 Y190.749 E51.01106
G1 X90.409 Y190.186 E51.03407
G1 X90.314 Y190.091 E51.03771
G1 X89.827 Y189.548 E51.05742
G1 X89.402 Y188.954 E51.07715
G1 X89.045 Y188.318 E51.09686
G1 X88.759 Y187.646 E51.1166
G1 X88.549 Y186.947 E51.13632
G1 X88.416 Y186.23 E51.15603
G1 X88.362 Y185.38 E51.17905
G1 X88.362 Y44.62 E54.98293
G1 X88.402 Y43.891 E55.00266
G1 X88.521 Y43.171 E55.02238
G1 X88.719 Y42.469 E55.04209
G1 X88.992 Y41.792 E55.06181
M204 S5000
G0 F2880 X89.316 Y41.866
M204 S3000
G1 F1200 X89.661 Y41.244 E55.08104
G1 X90.074 Y40.663 E55.1003
G1 X90.543 Y40.138 E55.11932
G1 X90.638 Y40.043 E55.12295
G1 X91.169 Y39.569 E55.14219
G1 X91.75 Y39.157 E55.16144
G1 X92.373 Y38.813 E55.18067
G1 X93.031 Y38.541 E55.19991
G1 X93.715 Y38.345 E55.21914
G1 X94.417 Y38.226 E55.23838
G1 X95.12 Y38.187 E55.25741
G1 X134.88 Y38.187 E56.33188
G1 X135.591 Y38.227 E56.35112
G1 X136.292 Y38.346 E56.37033
G1 X136.976 Y38.544 E56.38958
G1 X137.634 Y38.816 E56.40882
G1 X138.256 Y39.161 E56.42804
G1 X138.837 Y39.574 E56.4473
G1 X139.362 Y40.043 E56.46633
G1 X139.457 Y40.138 E56.46996
G1 X139.931 Y40.669 E56.48919
G1 X140.343 Y41.25 E56.50844
G1 X140.687 Y41.873 E56.52767
G1 X140.959 Y42.531 E56.54691
G1 X141.155 Y43.215 E56.56614
G1 X141.274 Y43.917 E56.58538
G1 X141.313 Y44.62 E56.60441
G1 X141.313 Y185.38 E60.40829
G1 X141.273 Y186.091 E60.42753
G1 X141.154 Y186.792 E60.44675
G1 X140.956 Y187.476 E60.46599
G1 X140.684 Y188.134 E60.48523
G1 X140.339 Y188.756 E60.50445
G1 X139.926 Y189.337 E60.52372
G1 X139.457 Y189.862 E60.54274
G1 X139.362 Y189.957 E60.54637
G1 X138.831 Y190.431 E60.56561
G1 X138.25 Y190.843 E60.58486
G1 X137.627 Y191.187 E60.60409
G1 X136.969 Y191.459 E60.62333
G1 X136.285 Y191.655 E60.64256
G1 X135.583 Y191.774 E60.6618
G1 X134.88 Y191.813 E60.68083
G1 X95.12 Y191.813 E61.75529
G1 X94.409 Y191.773 E61.77454
G1 X93.708 Y191.654 E61.79375
G1 X93.024 Y191.456 E61.813
G1 X92.366 Y191.184 E61.83224
G1 X91.744 Y190.839 E61.85146
G1 X91.163 Y190.426 E61.87072
G1 X90.638 Y189.957 E61.88975
G1 X90.543 Y189.862 E61.89338
G1 X90.069 Y189.331 E61.91261
G1 X89.657 Y188.75 E61.93186
G1 X89.313 Y188.127 E61.95109
G1 X89.041 Y187.469 E61.97033
G1 X88.845 Y186.785 E61.98956
G1 X88.726 Y186.083 E62.0088
G1 X88.687 Y185.38 E62.02783
G1 X88.687 Y44.62 E65.83171
G1 X88.727 Y43.909 E65.85095
G1 X88.846 Y43.208 E65.87017
G1 X89.044 Y42.524 E65.88941
G1 X89.316 Y41.866 E65.90865
M204 S5000
G0 F2880 X89.369 Y42.58
M204 S3000
G1 F1200 X89.641 Y41.943 E65.92737
G1 X89.985 Y41.341 E65.94611
G1 X90.396 Y40.782 E65.96486
G1 X90.773 Y40.368 E65.97999
G1 X90.868 Y40.273 E65.98362
G1 X91.386 Y39.812 E66.00236
G1 X91.953 Y39.414 E66.02108
G1 X92.563 Y39.083 E66.03983
G1 X93.206 Y38.825 E66.05856
G1 X93.875 Y38.642 E66.0773
G1 X94.56 Y38.538 E66.09602
G1 X95.12 Y38.512 E66.11117
G1 X134.88 Y38.512 E67.18564
G1 X135.572 Y38.552 E67.20437
G1 X136.255 Y38.671 E67.22311
G1 X136.92 Y38.869 E67.24186
G1 X137.557 Y39.141 E67.26058
G1 X138.159 Y39.485 E67.27931
G1 X138.718 Y39.896 E67.29806
G1 X139.132 Y40.273 E67.3132
G1 X139.227 Y40.368 E67.31683
G1 X139.688 Y40.886 E67.33557
G1 X140.086 Y41.453 E67.35429
G1 X140.417 Y42.063 E67.37304
G1 X140.675 Y42.706 E67.39176
G1 X140.858 Y43.375 E67.41051
G1 X140.962 Y44.06 E67.42923
G1 X140.988 Y44.62 E67.44438
G1 X140.988 Y185.38 E71.24826
G1 X140.948 Y186.072 E71.26699
G1 X140.829 Y186.755 E71.28573
G1 X140.631 Y187.42 E71.30448
G1 X140.359 Y188.057 E71.32319
G1 X140.015 Y188.659 E71.34193
G1 X139.604 Y189.218 E71.36068
G1 X139.227 Y189.632 E71.37581
G1 X139.132 Y189.727 E71.37944
G1 X138.614 Y190.188 E71.39818
G1 X138.047 Y190.586 E71.4169
G1 X137.437 Y190.917 E71.43566
G1 X136.794 Y191.175 E71.45438
G1 X136.125 Y191.358 E71.47312
G1 X135.44 Y191.462 E71.49185
G1 X134.88 Y191.488 E71.507
G1 X95.12 Y191.488 E72.58147
G1 X94.428 Y191.448 E72.6002
G1 X93.745 Y191.329 E72.61893
G1 X93.08 Y191.131 E72.63768
G1 X92.443 Y190.859 E72.6564
G1 X91.841 Y190.515 E72.67514
G1 X91.282 Y190.104 E72.69389
G1 X90.868 Y189.727 E72.70902
G1 X90.773 Y189.632 E72.71265
G1 X90.312 Y189.114 E72.73139
G1 X89.914 Y188.547 E72.75011
G1 X89.583 Y187.937 E72.76887
G1 X89.325 Y187.294 E72.78759
G1 X89.142 Y186.625 E72.80633
G1 X89.038 Y185.94 E72.82506
G1 X89.012 Y185.38 E72.8402
G1 X89.012 Y44.62 E76.64408
G1 X89.052 Y43.928 E76.66282
G1 X89.171 Y43.245 E76.68155
G1 X89.369 Y42.58 E76.7003
M204 S5000
G0 F2880 X89.693 Y42.638
M204 S3000
G1 F1200 X89.965 Y42.021 E76.71852
G1 X90.308 Y41.441 E76.73673
G1 X90.718 Y40.905 E76.75497
G1 X91.098 Y40.503 E76.76992
G1 X91.602 Y40.055 E76.78814
G1 X92.156 Y39.67 E76.80637
G1 X92.751 Y39.354 E76.82458
G1 X93.38 Y39.11 E76.84281
G1 X94.033 Y38.942 E76.86103
G1 X94.701 Y38.852 E76.87925
G1 X95.12 Y38.837 E76.89058
G1 X134.88 Y38.837 E77.96505
G1 X135.553 Y38.877 E77.98326
G1 X136.217 Y38.996 E78.00149
G1 X136.862 Y39.193 E78.01972
G1 X137.479 Y39.465 E78.03794
G1 X138.059 Y39.808 E78.05615
G1 X138.595 Y40.218 E78.07439
G1 X138.997 Y40.598 E78.08934
G1 X139.445 Y41.102 E78.10756
G1 X139.83 Y41.656 E78.12579
G1 X140.146 Y42.251 E78.144
G1 X140.39 Y42.88 E78.16223
G1 X140.558 Y43.533 E78.18045
G1 X140.648 Y44.201 E78.19867
G1 X140.663 Y44.62 E78.21
G1 X140.663 Y185.38 E82.01387
G1 X140.623 Y186.053 E82.03209
G1 X140.504 Y186.717 E82.05032
G1 X140.307 Y187.362 E82.06855
G1 X140.035 Y187.979 E82.08677
G1 X139.692 Y188.559 E82.10498
G1 X139.282 Y189.095 E82.12322
G1 X138.902 Y189.497 E82.13817
G1 X138.398 Y189.945 E82.15639
G1 X137.844 Y190.33 E82.17462
G1 X137.249 Y190.646 E82.19283
G1 X136.62 Y190.89 E82.21106
G1 X135.967 Y191.058 E82.22928
G1 X135.299 Y191.148 E82.24749
G1 X134.88 Y191.163 E82.25883
G1 X95.12 Y191.163 E83.33329
G1 X94.447 Y191.123 E83.35151
G1 X93.783 Y191.004 E83.36974
