;FLAVOR:Marlin
;TIME:4476
;Filament used: 2.2376m
;Layer height: 0.15
;MINX:81.9
;MINY:88.15
;MINZ:0.15
;MAXX:148.1
;MAXY:141.85
;MAXZ:12.9
;Generated with Cura_SteamEngine 4.8.0
M140 S60
M105
M190 S60
M104 S195
M105
M109 S195
M82 ;absolute extrusion mode
G28 ;Home
G1 Z15.0 F6000 ;Move the platform down 15mm
;Prime the extruder
G92 E0
G1 F200 E3
G92 E0
G92 E0
G92 E0
G1 F1500 E-6.5
;LAYER_COUNT:86
;LAYER:0
M107 P1
G0 F2400 X84.377 Y90.522 Z0.15
;TYPE:SKIRT
G1 F1500 E0
G1 F1350 X84.974 Y89.982 E0.01807
G1 X85.621 Y89.504 E0.03613
G1 X86.313 Y89.093 E0.0542
G1 X87.042 Y88.752 E0.07227
G1 X87.801 Y88.485 E0.09033
G1 X88.583 Y88.294 E0.10841
G1 X89.38 Y88.183 E0.12647
G1 X90.105 Y88.15 E0.14277
G1 X139.895 Y88.15 E1.26058
G1 X140.699 Y88.19 E1.27865
G1 X141.495 Y88.31 E1.29673
G1 X142.275 Y88.507 E1.31479
G1 X143.031 Y88.782 E1.33285
G1 X143.757 Y89.13 E1.35092
G1 X144.444 Y89.548 E1.36898
G1 X145.087 Y90.033 E1.38706
G1 X145.623 Y90.522 E1.40335
G1 X145.728 Y90.627 E1.40668
G1 X146.268 Y91.224 E1.42475
G1 X146.746 Y91.871 E1.44281
G1 X147.157 Y92.563 E1.46088
G1 X147.498 Y93.292 E1.47895
G1 X147.765 Y94.051 E1.49701
G1 X147.956 Y94.833 E1.51509
G1 X148.067 Y95.63 E1.53315
G1 X148.1 Y96.355 E1.54945
G1 X148.1 Y133.645 E2.38663
G1 X148.06 Y134.449 E2.4047
G1 X147.94 Y135.245 E2.42277
G1 X147.743 Y136.025 E2.44084
G1 X147.468 Y136.781 E2.4589
G1 X147.12 Y137.507 E2.47697
G1 X146.702 Y138.194 E2.49503
G1 X146.217 Y138.837 E2.51311
G1 X145.728 Y139.373 E2.5294
G1 X145.623 Y139.478 E2.53273
G1 X145.026 Y140.018 E2.5508
G1 X144.379 Y140.496 E2.56886
G1 X143.687 Y140.907 E2.58693
G1 X142.958 Y141.248 E2.605
G1 X142.199 Y141.515 E2.62306
G1 X141.417 Y141.706 E2.64114
G1 X140.62 Y141.817 E2.6592
G1 X139.895 Y141.85 E2.6755
G1 X90.105 Y141.85 E3.79331
G1 X89.301 Y141.81 E3.81138
G1 X88.505 Y141.69 E3.82946
G1 X87.725 Y141.493 E3.84752
G1 X86.969 Y141.218 E3.86558
G1 X86.243 Y140.87 E3.88365
G1 X85.556 Y140.452 E3.90171
G1 X84.913 Y139.967 E3.91979
G1 X84.377 Y139.478 E3.93608
G1 X84.272 Y139.373 E3.93941
G1 X83.732 Y138.776 E3.95748
G1 X83.254 Y138.129 E3.97554
G1 X82.843 Y137.437 E3.99361
G1 X82.502 Y136.708 E4.01168
G1 X82.235 Y135.949 E4.02974
G1 X82.044 Y135.167 E4.04782
G1 X81.933 Y134.37 E4.06588
G1 X81.9 Y133.645 E4.08218
G1 X81.9 Y96.355 E4.91936
G1 X81.94 Y95.551 E4.93743
G1 X82.06 Y94.755 E4.9555
G1 X82.257 Y93.975 E4.97357
G1 X82.532 Y93.219 E4.99163
G1 X82.88 Y92.493 E5.0097
G1 X83.298 Y91.806 E5.02776
G1 X83.783 Y91.163 E5.04584
G1 X84.272 Y90.627 E5.06213
G1 X84.377 Y90.522 E5.06546
G0 F2400 X84.632 Y90.777
G1 F1350 X85.216 Y90.25 E5.08312
G1 X85.85 Y89.784 E5.10078
G1 X86.528 Y89.386 E5.11844
G1 X87.243 Y89.058 E5.1361
G1 X87.988 Y88.805 E5.15376
G1 X88.755 Y88.629 E5.17143
G1 X89.535 Y88.531 E5.18908
G1 X90.105 Y88.51 E5.20188
G1 X139.895 Y88.51 E6.3197
G1 X140.681 Y88.55 E6.33737
G1 X141.458 Y88.669 E6.35501
G1 X142.219 Y88.867 E6.37267
G1 X142.957 Y89.141 E6.39034
G1 X143.663 Y89.489 E6.40801
G1 X144.329 Y89.906 E6.42565
G1 X144.95 Y90.389 E6.44331
G1 X145.368 Y90.777 E6.45612
G1 X145.473 Y90.882 E6.45945
G1 X146 Y91.466 E6.47711
G1 X146.466 Y92.1 E6.49478
G1 X146.864 Y92.778 E6.51243
G1 X147.192 Y93.493 E6.53009
G1 X147.445 Y94.238 E6.54775
G1 X147.621 Y95.005 E6.56542
G1 X147.719 Y95.785 E6.58307
G1 X147.74 Y96.355 E6.59587
G1 X147.74 Y133.645 E7.43306
G1 X147.7 Y134.431 E7.45073
G1 X147.581 Y135.208 E7.46837
G1 X147.383 Y135.969 E7.48603
G1 X147.109 Y136.707 E7.5037
G1 X146.761 Y137.413 E7.52137
G1 X146.344 Y138.079 E7.53901
G1 X145.861 Y138.7 E7.55668
G1 X145.473 Y139.118 E7.56948
G1 X145.368 Y139.223 E7.57281
G1 X144.784 Y139.75 E7.59047
G1 X144.15 Y140.216 E7.60814
G1 X143.472 Y140.614 E7.62579
G1 X142.757 Y140.942 E7.64345
G1 X142.012 Y141.195 E7.66111
G1 X141.245 Y141.371 E7.67878
G1 X140.465 Y141.469 E7.69643
G1 X139.895 Y141.49 E7.70924
G1 X90.105 Y141.49 E8.82705
G1 X89.319 Y141.45 E8.84472
G1 X88.542 Y141.331 E8.86237
G1 X87.781 Y141.133 E8.88002
G1 X87.043 Y140.859 E8.89769
G1 X86.337 Y140.511 E8.91536
G1 X85.671 Y140.094 E8.93301
G1 X85.05 Y139.611 E8.95067
G1 X84.632 Y139.223 E8.96347
G1 X84.527 Y139.118 E8.96681
G1 X84 Y138.534 E8.98447
G1 X83.534 Y137.9 E9.00213
G1 X83.136 Y137.222 E9.01978
G1 X82.808 Y136.507 E9.03744
G1 X82.555 Y135.762 E9.05511
G1 X82.379 Y134.995 E9.07277
G1 X82.281 Y134.215 E9.09042
G1 X82.26 Y133.645 E9.10323
G1 X82.26 Y96.355 E9.94041
G1 X82.3 Y95.569 E9.95808
G1 X82.419 Y94.792 E9.97573
G1 X82.617 Y94.031 E9.99338
G1 X82.891 Y93.293 E10.01105
G1 X83.239 Y92.587 E10.02873
G1 X83.656 Y91.921 E10.04637
G1 X84.139 Y91.3 E10.06403
G1 X84.527 Y90.882 E10.07683
G1 X84.632 Y90.777 E10.08017
G0 F2400 X84.887 Y91.032
G1 F1350 X85.457 Y90.517 E10.09741
G1 X86.078 Y90.065 E10.11466
G1 X86.743 Y89.68 E10.13191
G1 X87.444 Y89.366 E10.14915
G1 X88.174 Y89.127 E10.1664
G1 X88.925 Y88.965 E10.18365
G1 X89.688 Y88.882 E10.20088
G1 X90.105 Y88.87 E10.21024
G1 X139.895 Y88.87 E11.32806
G1 X140.662 Y88.91 E11.3453
G1 X141.421 Y89.029 E11.36255
G1 X142.163 Y89.227 E11.37979
G1 X142.881 Y89.501 E11.39704
G1 X143.566 Y89.848 E11.41428
G1 X144.212 Y90.264 E11.43153
G1 X144.81 Y90.745 E11.44876
G1 X145.218 Y91.137 E11.46146
G1 X145.733 Y91.707 E11.47871
G1 X146.185 Y92.328 E11.49596
G1 X146.57 Y92.993 E11.51321
G1 X146.884 Y93.694 E11.53045
G1 X147.123 Y94.424 E11.5477
G1 X147.285 Y95.175 E11.56494
G1 X147.368 Y95.938 E11.58217
G1 X147.38 Y96.355 E11.59154
G1 X147.38 Y133.645 E12.42872
G1 X147.34 Y134.412 E12.44597
G1 X147.221 Y135.171 E12.46321
G1 X147.023 Y135.913 E12.48046
G1 X146.749 Y136.631 E12.49771
G1 X146.402 Y137.316 E12.51495
G1 X145.986 Y137.962 E12.5322
G1 X145.505 Y138.56 E12.54943
G1 X145.113 Y138.968 E12.56213
G1 X144.543 Y139.483 E12.57938
G1 X143.922 Y139.935 E12.59662
G1 X143.257 Y140.32 E12.61387
G1 X142.556 Y140.634 E12.63112
G1 X141.826 Y140.873 E12.64836
G1 X141.075 Y141.035 E12.66561
G1 X140.312 Y141.118 E12.68284
G1 X139.895 Y141.13 E12.69221
G1 X90.105 Y141.13 E13.81002
G1 X89.338 Y141.09 E13.82726
G1 X88.579 Y140.971 E13.84451
G1 X87.837 Y140.773 E13.86175
G1 X87.119 Y140.499 E13.87901
G1 X86.434 Y140.152 E13.89625
G1 X85.788 Y139.736 E13.9135
G1 X85.19 Y139.255 E13.93073
G1 X84.782 Y138.863 E13.94343
G1 X84.267 Y138.293 E13.96067
G1 X83.815 Y137.672 E13.97792
G1 X83.43 Y137.007 E13.99517
G1 X83.116 Y136.306 E14.01241
G1 X82.877 Y135.576 E14.02966
G1 X82.715 Y134.825 E14.04691
G1 X82.632 Y134.062 E14.06414
G1 X82.62 Y133.645 E14.0735
G1 X82.62 Y96.355 E14.91069
G1 X82.66 Y95.588 E14.92793
G1 X82.779 Y94.829 E14.94518
G1 X82.977 Y94.087 E14.96242
G1 X83.251 Y93.369 E14.97967
G1 X83.598 Y92.684 E14.99691
G1 X84.014 Y92.038 E15.01416
G1 X84.495 Y91.44 E15.03139
G1 X84.887 Y91.032 E15.04409
G0 F2400 X85.141 Y91.286
G1 F1350 X85.698 Y90.785 E15.06091
G1 X86.306 Y90.347 E15.07774
G1 X86.956 Y89.976 E15.09454
G1 X87.643 Y89.676 E15.11137
G1 X88.358 Y89.451 E15.1282
G1 X89.092 Y89.303 E15.14501
G1 X90.105 Y89.23 E15.16781
G1 X139.895 Y89.23 E16.28562
G1 X140.643 Y89.27 E16.30244
G1 X141.383 Y89.389 E16.31927
G1 X142.105 Y89.587 E16.33608
G1 X142.803 Y89.86 E16.3529
G1 X143.467 Y90.207 E16.36972
G1 X144.091 Y90.622 E16.38655
G1 X144.859 Y91.286 E16.40934
G1 X144.964 Y91.391 E16.41267
G1 X145.465 Y91.948 E16.42949
G1 X145.903 Y92.556 E16.44632
G1 X146.274 Y93.206 E16.46312
G1 X146.574 Y93.893 E16.47995
G1 X146.799 Y94.608 E16.49678
G1 X146.947 Y95.342 E16.51359
G1 X147.02 Y96.355 E16.53639
G1 X147.02 Y133.645 E17.37357
G1 X146.98 Y134.393 E17.39039
G1 X146.861 Y135.133 E17.40721
G1 X146.663 Y135.855 E17.42402
G1 X146.39 Y136.553 E17.44085
G1 X146.043 Y137.217 E17.45767
G1 X145.628 Y137.841 E17.47449
G1 X144.964 Y138.609 E17.49729
G1 X144.859 Y138.714 E17.50062
G1 X144.302 Y139.215 E17.51744
G1 X143.694 Y139.653 E17.53426
G1 X143.044 Y140.024 E17.55106
G1 X142.357 Y140.324 E17.56789
G1 X141.642 Y140.549 E17.58472
G1 X140.908 Y140.697 E17.60153
G1 X139.895 Y140.77 E17.62433
G1 X90.105 Y140.77 E18.74215
G1 X89.357 Y140.73 E18.75897
G1 X88.617 Y140.611 E18.77579
G1 X87.895 Y140.413 E18.7926
G1 X87.197 Y140.14 E18.80943
G1 X86.533 Y139.793 E18.82625
G1 X85.909 Y139.378 E18.84307
G1 X85.141 Y138.714 E18.86586
G1 X85.036 Y138.609 E18.8692
G1 X84.535 Y138.052 E18.88602
G1 X84.097 Y137.444 E18.90284
G1 X83.726 Y136.794 E18.91964
G1 X83.426 Y136.107 E18.93647
G1 X83.201 Y135.392 E18.9533
G1 X83.053 Y134.658 E18.97011
G1 X82.98 Y133.645 E18.99291
G1 X82.98 Y96.355 E19.8301
G1 X83.02 Y95.607 E19.84691
G1 X83.139 Y94.867 E19.86374
G1 X83.337 Y94.145 E19.88055
G1 X83.61 Y93.447 E19.89737
G1 X83.957 Y92.783 E19.91419
G1 X84.372 Y92.159 E19.93102
G1 X85.036 Y91.391 E19.95381
G1 X85.141 Y91.286 E19.95715
G0 F2400 X85.396 Y91.541
G1 F1350 X85.939 Y91.054 E19.97352
G1 X86.533 Y90.629 E19.98992
G1 X87.169 Y90.272 E20.00629
G1 X87.84 Y89.987 E20.02266
G1 X88.539 Y89.777 E20.03905
G1 X89.257 Y89.644 E20.05544
G1 X90.105 Y89.59 E20.07452
G1 X139.895 Y89.59 E21.19233
G1 X140.624 Y89.63 E21.20872
G1 X141.343 Y89.749 E21.22508
G1 X142.046 Y89.947 E21.24148
G1 X142.722 Y90.22 E21.25785
G1 X143.365 Y90.565 E21.27423
G1 X143.966 Y90.979 E21.29061
G1 X144.604 Y91.541 E21.3097
G1 X144.709 Y91.646 E21.31304
G1 X145.196 Y92.189 E21.32941
G1 X145.621 Y92.783 E21.34581
G1 X145.978 Y93.419 E21.36218
G1 X146.263 Y94.09 E21.37855
G1 X146.473 Y94.789 E21.39494
G1 X146.606 Y95.507 E21.41133
G1 X146.66 Y96.355 E21.43041
G1 X146.66 Y133.645 E22.26759
G1 X146.62 Y134.374 E22.28398
G1 X146.501 Y135.093 E22.30034
G1 X146.303 Y135.796 E22.31674
G1 X146.03 Y136.472 E22.33311
G1 X145.685 Y137.115 E22.34949
G1 X145.271 Y137.716 E22.36587
G1 X144.709 Y138.354 E22.38496
G1 X144.604 Y138.459 E22.38829
G1 X144.061 Y138.946 E22.40467
G1 X143.467 Y139.371 E22.42107
G1 X142.831 Y139.728 E22.43744
G1 X142.16 Y140.013 E22.45381
G1 X141.461 Y140.223 E22.47019
G1 X140.743 Y140.356 E22.48659
G1 X139.895 Y140.41 E22.50566
G1 X90.105 Y140.41 E23.62348
G1 X89.376 Y140.37 E23.63987
G1 X88.657 Y140.251 E23.65623
G1 X87.954 Y140.053 E23.67263
G1 X87.278 Y139.78 E23.689
G1 X86.635 Y139.435 E23.70538
G1 X86.034 Y139.021 E23.72176
G1 X85.396 Y138.459 E23.74085
G1 X85.291 Y138.354 E23.74419
G1 X84.804 Y137.811 E23.76056
G1 X84.379 Y137.217 E23.77696
G1 X84.022 Y136.581 E23.79333
G1 X83.737 Y135.91 E23.8097
G1 X83.527 Y135.211 E23.82609
G1 X83.394 Y134.493 E23.84248
G1 X83.34 Y133.645 E23.86156
G1 X83.34 Y96.355 E24.69874
G1 X83.38 Y95.626 E24.71513
G1 X83.499 Y94.907 E24.73149
G1 X83.697 Y94.204 E24.74789
G1 X83.97 Y93.528 E24.76425
G1 X84.315 Y92.885 E24.78064
G1 X84.729 Y92.284 E24.79702
G1 X85.291 Y91.646 E24.81611
G1 X85.396 Y91.541 E24.81944
G0 F2400 X85.65 Y91.795
G1 F1350 X86.179 Y91.322 E24.83538
G1 X86.759 Y90.912 E24.85132
G1 X87.38 Y90.57 E24.86724
G1 X88.036 Y90.299 E24.88317
G1 X88.719 Y90.104 E24.89912
G1 X89.418 Y89.988 E24.91503
G1 X90.105 Y89.95 E24.93047
G1 X139.895 Y89.95 E26.04829
G1 X140.604 Y89.99 E26.06423
G1 X141.303 Y90.109 E26.08015
G1 X141.985 Y90.307 E26.09609
G1 X142.64 Y90.579 E26.11202
G1 X143.26 Y90.924 E26.12795
G1 X143.838 Y91.336 E26.14388
G1 X144.35 Y91.795 E26.15932
G1 X144.455 Y91.9 E26.16265
G1 X144.928 Y92.429 E26.17858
G1 X145.338 Y93.009 E26.19453
G1 X145.68 Y93.63 E26.21045
G1 X145.951 Y94.286 E26.22638
G1 X146.146 Y94.969 E26.24233
G1 X146.262 Y95.668 E26.25824
G1 X146.3 Y96.355 E26.27368
G1 X146.3 Y133.645 E27.11086
G1 X146.26 Y134.354 E27.12681
G1 X146.141 Y135.053 E27.14273
G1 X145.943 Y135.735 E27.15867
G1 X145.671 Y136.39 E27.17459
G1 X145.326 Y137.01 E27.19052
G1 X144.914 Y137.588 E27.20646
G1 X144.455 Y138.1 E27.2219
G1 X144.35 Y138.205 E27.22523
G1 X143.821 Y138.678 E27.24116
G1 X143.241 Y139.088 E27.25711
G1 X142.62 Y139.43 E27.27302
G1 X141.964 Y139.701 E27.28896
G1 X141.281 Y139.896 E27.3049
G1 X140.582 Y140.012 E27.32081
G1 X139.895 Y140.05 E27.33626
G1 X90.105 Y140.05 E28.45407
G1 X89.396 Y140.01 E28.47002
G1 X88.697 Y139.891 E28.48594
G1 X88.015 Y139.693 E28.50188
G1 X87.36 Y139.421 E28.5178
G1 X86.74 Y139.076 E28.53373
G1 X86.162 Y138.664 E28.54967
G1 X85.65 Y138.205 E28.5651
G1 X85.545 Y138.1 E28.56844
G1 X85.072 Y137.571 E28.58437
G1 X84.662 Y136.991 E28.60032
G1 X84.32 Y136.37 E28.61623
G1 X84.049 Y135.714 E28.63217
G1 X83.854 Y135.031 E28.64811
G1 X83.738 Y134.332 E28.66402
G1 X83.7 Y133.645 E28.67947
G1 X83.7 Y96.355 E29.51665
G1 X83.74 Y95.646 E29.53259
G1 X83.859 Y94.947 E29.54851
G1 X84.057 Y94.265 E29.56446
G1 X84.329 Y93.61 E29.58038
G1 X84.674 Y92.99 E29.59631
G1 X85.086 Y92.412 E29.61224
G1 X85.545 Y91.9 E29.62768
G1 X85.65 Y91.795 E29.63101
G0 F2400 X85.905 Y92.05
G1 F1350 X86.419 Y91.592 E29.64647
G1 X86.984 Y91.196 E29.66196
G1 X87.59 Y90.869 E29.67742
G1 X88.23 Y90.614 E29.69289
G1 X88.895 Y90.434 E29.70835
G1 X89.577 Y90.334 E29.72383
G1 X90.105 Y90.31 E29.73569
G1 X139.895 Y90.31 E30.85351
G1 X140.583 Y90.35 E30.86898
G1 X141.262 Y90.469 E30.88446
G1 X141.922 Y90.666 E30.89992
G1 X142.555 Y90.939 E30.9154
G1 X143.152 Y91.283 E30.93087
G1 X143.705 Y91.693 E30.94632
G1 X144.095 Y92.05 E30.95819
G1 X144.2 Y92.155 E30.96153
G1 X144.658 Y92.669 E30.97698
G1 X145.054 Y93.234 E30.99247
G1 X145.381 Y93.84 E31.00793
G1 X145.636 Y94.48 E31.0234
G1 X145.816 Y95.145 E31.03886
G1 X145.916 Y95.827 E31.05434
G1 X145.94 Y96.355 E31.06621
G1 X145.94 Y133.645 E31.90339
G1 X145.9 Y134.333 E31.91886
G1 X145.781 Y135.012 E31.93434
G1 X145.584 Y135.672 E31.9498
G1 X145.311 Y136.305 E31.96528
G1 X144.967 Y136.902 E31.98075
G1 X144.557 Y137.455 E31.9962
G1 X144.2 Y137.845 E32.00807
G1 X144.095 Y137.95 E32.0114
G1 X143.581 Y138.408 E32.02686
G1 X143.016 Y138.804 E32.04235
G1 X142.41 Y139.131 E32.05781
G1 X141.77 Y139.386 E32.07328
G1 X141.105 Y139.566 E32.08874
G1 X140.423 Y139.666 E32.10422
G1 X139.895 Y139.69 E32.11609
G1 X90.105 Y139.69 E33.2339
G1 X89.417 Y139.65 E33.24937
G1 X88.738 Y139.531 E33.26485
G1 X88.078 Y139.334 E33.28031
G1 X87.445 Y139.061 E33.29579
G1 X86.848 Y138.717 E33.31126
G1 X86.295 Y138.307 E33.32671
G1 X85.905 Y137.95 E33.33858
G1 X85.8 Y137.845 E33.34192
G1 X85.342 Y137.331 E33.35737
G1 X84.946 Y136.766 E33.37286
G1 X84.619 Y136.16 E33.38832
G1 X84.364 Y135.52 E33.40379
G1 X84.184 Y134.855 E33.41926
G1 X84.084 Y134.173 E33.43473
G1 X84.06 Y133.645 E33.4466
G1 X84.06 Y96.355 E34.28378
G1 X84.1 Y95.667 E34.29925
G1 X84.219 Y94.988 E34.31473
G1 X84.416 Y94.328 E34.33019
G1 X84.689 Y93.695 E34.34567
G1 X85.033 Y93.098 E34.36114
G1 X85.443 Y92.545 E34.37659
G1 X85.8 Y92.155 E34.38846
G1 X85.905 Y92.05 E34.3918
G0 F2400 X86.159 Y92.304
G1 F1350 X86.659 Y91.861 E34.40679
G1 X87.208 Y91.481 E34.42178
G1 X87.798 Y91.169 E34.43677
G1 X88.422 Y90.93 E34.45177
G1 X89.07 Y90.767 E34.46677
G1 X89.732 Y90.682 E34.48175
G1 X90.105 Y90.67 E34.49013
G1 X139.895 Y90.67 E35.60795
G1 X140.562 Y90.71 E35.62295
G1 X141.219 Y90.829 E35.63794
G1 X141.857 Y91.026 E35.65293
G1 X142.467 Y91.298 E35.66792
G1 X143.04 Y91.641 E35.68292
G1 X143.568 Y92.05 E35.69791
G1 X143.946 Y92.409 E35.70961
G1 X144.389 Y92.909 E35.72461
G1 X144.769 Y93.458 E35.7396
G1 X145.081 Y94.048 E35.75459
G1 X145.32 Y94.672 E35.76959
G1 X145.483 Y95.32 E35.78459
G1 X145.568 Y95.982 E35.79957
G1 X145.58 Y96.355 E35.80795
G1 X145.58 Y133.645 E36.64513
G1 X145.54 Y134.312 E36.66014
G1 X145.421 Y134.969 E36.67513
G1 X145.224 Y135.607 E36.69012
G1 X144.952 Y136.217 E36.70511
G1 X144.609 Y136.79 E36.7201
G1 X144.2 Y137.318 E36.7351
G1 X143.841 Y137.696 E36.7468
G1 X143.341 Y138.139 E36.7618
G1 X142.792 Y138.519 E36.77679
G1 X142.202 Y138.831 E36.79177
G1 X141.578 Y139.07 E36.80677
G1 X140.93 Y139.233 E36.82178
G1 X140.268 Y139.318 E36.83676
G1 X139.895 Y139.33 E36.84514
G1 X90.105 Y139.33 E37.96295
G1 X89.438 Y139.29 E37.97795
G1 X88.781 Y139.171 E37.99295
G1 X88.143 Y138.974 E38.00794
G1 X87.533 Y138.702 E38.02293
G1 X86.96 Y138.359 E38.03792
G1 X86.432 Y137.95 E38.05292
G1 X86.054 Y137.591 E38.06462
G1 X85.611 Y137.091 E38.07962
G1 X85.231 Y136.542 E38.09461
G1 X84.919 Y135.952 E38.10959
G1 X84.68 Y135.328 E38.12459
G1 X84.517 Y134.68 E38.1396
G1 X84.432 Y134.018 E38.15458
G1 X84.42 Y133.645 E38.16296
G1 X84.42 Y96.355 E39.00014
G1 X84.46 Y95.688 E39.01514
G1 X84.579 Y95.031 E39.03013
