;FLAVOR:Marlin
;TIME:2359
;Filament used: 1.34708m
;Layer height: 0.15
;MINX:40.382
;MINY:37.824
;MINZ:0.2
;MAXX:76.582
;MAXY:74.024
;MAXZ:20
;Generated with Cura_SteamEngine 4.8.0
M140 S60
M105
M190 S60
M104 S195
M105
M109 S195
M82 ;absolute extrusion mode
G28 ;Home
G1 Z15.0 F6000 ;Move the platform down 15mm
;Prime the extruder
G92 E0
G1 F200 E3
G92 E0
G92 E0
G92 E0
G1 F1500 E-6.5
;LAYER_COUNT:133
;LAYER:0
M107 P1
G0 F2400 X42.754 Y40.301 Z0.2
;TYPE:SKIRT
G1 F1500 E0
G1 F1350 X42.859 Y40.196 E0.00444
G1 X43.456 Y39.656 E0.02854
G1 X44.103 Y39.178 E0.05262
G1 X44.795 Y38.767 E0.07671
G1 X45.524 Y38.426 E0.10081
G1 X46.283 Y38.159 E0.12489
G1 X47.065 Y37.968 E0.14899
G1 X47.862 Y37.857 E0.17307
G1 X48.587 Y37.824 E0.1948
G1 X68.377 Y37.824 E0.7872
G1 X69.181 Y37.864 E0.81129
G1 X69.977 Y37.984 E0.83539
G1 X70.757 Y38.181 E0.85947
G1 X71.513 Y38.456 E0.88355
G1 X72.239 Y38.804 E0.90765
G1 X72.926 Y39.222 E0.93172
G1 X73.569 Y39.707 E0.95583
G1 X74.105 Y40.196 E0.97755
G1 X74.21 Y40.301 E0.982
G1 X74.75 Y40.898 E1.00609
G1 X75.228 Y41.545 E1.03017
G1 X75.639 Y42.237 E1.05426
G1 X75.98 Y42.966 E1.07836
G1 X76.247 Y43.725 E1.10244
G1 X76.438 Y44.507 E1.12654
G1 X76.549 Y45.304 E1.15063
G1 X76.582 Y46.029 E1.17235
G1 X76.582 Y65.819 E1.76475
G1 X76.542 Y66.623 E1.78884
G1 X76.422 Y67.419 E1.81294
G1 X76.225 Y68.199 E1.83702
G1 X75.95 Y68.955 E1.8611
G1 X75.602 Y69.681 E1.8852
G1 X75.184 Y70.368 E1.90927
G1 X74.699 Y71.011 E1.93338
G1 X74.21 Y71.547 E1.9551
G1 X74.105 Y71.652 E1.95955
G1 X73.508 Y72.192 E1.98364
G1 X72.861 Y72.67 E2.00772
G1 X72.169 Y73.081 E2.03182
G1 X71.44 Y73.422 E2.05591
G1 X70.681 Y73.689 E2.07999
G1 X69.899 Y73.88 E2.10409
G1 X69.102 Y73.991 E2.12818
G1 X68.377 Y74.024 E2.1499
G1 X48.587 Y74.024 E2.7423
G1 X47.783 Y73.984 E2.76639
G1 X46.987 Y73.864 E2.79049
G1 X46.207 Y73.667 E2.81457
G1 X45.451 Y73.392 E2.83865
G1 X44.725 Y73.044 E2.86275
G1 X44.038 Y72.626 E2.88683
G1 X43.395 Y72.141 E2.91094
G1 X42.859 Y71.652 E2.93265
G1 X42.754 Y71.547 E2.9371
G1 X42.214 Y70.95 E2.9612
G1 X41.736 Y70.303 E2.98527
G1 X41.325 Y69.611 E3.00937
G1 X40.984 Y68.882 E3.03346
G1 X40.717 Y68.123 E3.05754
G1 X40.526 Y67.341 E3.08164
G1 X40.415 Y66.544 E3.10573
G1 X40.382 Y65.819 E3.12745
G1 X40.382 Y46.029 E3.71985
G1 X40.422 Y45.225 E3.74395
G1 X40.542 Y44.429 E3.76804
G1 X40.739 Y43.649 E3.79212
G1 X41.014 Y42.893 E3.81621
G1 X41.362 Y42.167 E3.8403
G1 X41.78 Y41.48 E3.86438
G1 X42.265 Y40.837 E3.88849
G1 X42.754 Y40.301 E3.9102
G0 F2400 X43.009 Y40.556
G1 F1350 X43.114 Y40.451 E3.91465
G1 X43.698 Y39.924 E3.9382
G1 X44.332 Y39.458 E3.96175
G1 X45.01 Y39.06 E3.98528
G1 X45.725 Y38.732 E4.00883
G1 X46.47 Y38.479 E4.03238
G1 X47.237 Y38.303 E4.05594
G1 X48.017 Y38.205 E4.07947
G1 X48.587 Y38.184 E4.09655
G1 X68.377 Y38.184 E4.68894
G1 X69.163 Y38.224 E4.7125
G1 X69.94 Y38.343 E4.73603
G1 X70.701 Y38.541 E4.75957
G1 X71.439 Y38.815 E4.78313
G1 X72.145 Y39.163 E4.80669
G1 X72.811 Y39.58 E4.83022
G1 X73.432 Y40.063 E4.85377
G1 X73.85 Y40.451 E4.87084
G1 X73.955 Y40.556 E4.87528
G1 X74.482 Y41.14 E4.89883
G1 X74.948 Y41.774 E4.92238
G1 X75.346 Y42.452 E4.94592
G1 X75.674 Y43.167 E4.96947
G1 X75.927 Y43.912 E4.99302
G1 X76.103 Y44.679 E5.01657
G1 X76.201 Y45.459 E5.04011
G1 X76.222 Y46.029 E5.05718
G1 X76.222 Y65.819 E5.64958
G1 X76.182 Y66.605 E5.67313
G1 X76.063 Y67.382 E5.69666
G1 X75.865 Y68.143 E5.7202
G1 X75.591 Y68.881 E5.74377
G1 X75.243 Y69.587 E5.76733
G1 X74.826 Y70.253 E5.79085
G1 X74.343 Y70.874 E5.8144
G1 X73.955 Y71.292 E5.83147
G1 X73.85 Y71.397 E5.83592
G1 X73.266 Y71.924 E5.85946
G1 X72.632 Y72.39 E5.88302
G1 X71.954 Y72.788 E5.90655
G1 X71.239 Y73.116 E5.9301
G1 X70.494 Y73.369 E5.95365
G1 X69.727 Y73.545 E5.97721
G1 X68.947 Y73.643 E6.00074
G1 X68.377 Y73.664 E6.01781
G1 X48.587 Y73.664 E6.61021
G1 X47.801 Y73.624 E6.63377
G1 X47.024 Y73.505 E6.6573
G1 X46.263 Y73.307 E6.68084
G1 X45.525 Y73.033 E6.7044
G1 X44.819 Y72.685 E6.72796
G1 X44.153 Y72.268 E6.75148
G1 X43.532 Y71.785 E6.77503
G1 X43.114 Y71.397 E6.79211
G1 X43.009 Y71.292 E6.79655
G1 X42.482 Y70.708 E6.8201
G1 X42.016 Y70.074 E6.84365
G1 X41.618 Y69.396 E6.86718
G1 X41.29 Y68.681 E6.89073
G1 X41.037 Y67.936 E6.91428
G1 X40.861 Y67.169 E6.93784
G1 X40.763 Y66.389 E6.96137
G1 X40.742 Y65.819 E6.97845
G1 X40.742 Y46.029 E7.57084
G1 X40.782 Y45.243 E7.5944
G1 X40.901 Y44.466 E7.61793
G1 X41.099 Y43.705 E7.64147
G1 X41.373 Y42.967 E7.66503
G1 X41.721 Y42.261 E7.6886
G1 X42.138 Y41.595 E7.71212
G1 X42.621 Y40.974 E7.73567
G1 X43.009 Y40.556 E7.75274
G0 F2400 X43.369 Y40.706
G1 F1350 X43.939 Y40.191 E7.77573
G1 X44.56 Y39.739 E7.79873
G1 X45.225 Y39.354 E7.82173
G1 X45.926 Y39.04 E7.84472
G1 X46.656 Y38.801 E7.86771
G1 X47.407 Y38.639 E7.89071
G1 X48.17 Y38.556 E7.91369
G1 X48.587 Y38.544 E7.92617
G1 X68.377 Y38.544 E8.51857
G1 X69.144 Y38.584 E8.54156
G1 X69.903 Y38.703 E8.56456
G1 X70.645 Y38.901 E8.58755
G1 X71.363 Y39.175 E8.61055
G1 X72.048 Y39.522 E8.63354
G1 X72.694 Y39.938 E8.65654
G1 X73.292 Y40.419 E8.67951
G1 X73.7 Y40.811 E8.69645
G1 X74.215 Y41.381 E8.71944
G1 X74.667 Y42.002 E8.74243
G1 X75.052 Y42.667 E8.76543
G1 X75.366 Y43.368 E8.78843
G1 X75.605 Y44.098 E8.81142
G1 X75.767 Y44.849 E8.83442
G1 X75.85 Y45.612 E8.85739
G1 X75.862 Y46.029 E8.86988
G1 X75.862 Y65.819 E9.46228
G1 X75.822 Y66.586 E9.48527
G1 X75.703 Y67.345 E9.50827
G1 X75.505 Y68.087 E9.53125
G1 X75.231 Y68.805 E9.55426
G1 X74.884 Y69.49 E9.57724
G1 X74.468 Y70.136 E9.60024
G1 X73.987 Y70.734 E9.62322
G1 X73.595 Y71.142 E9.64015
G1 X73.025 Y71.657 E9.66315
G1 X72.404 Y72.109 E9.68614
G1 X71.739 Y72.494 E9.70914
G1 X71.038 Y72.808 E9.73213
G1 X70.308 Y73.047 E9.75513
G1 X69.557 Y73.209 E9.77813
G1 X68.794 Y73.292 E9.8011
G1 X68.377 Y73.304 E9.81359
G1 X48.587 Y73.304 E10.40598
G1 X47.82 Y73.264 E10.42897
G1 X47.061 Y73.145 E10.45197
G1 X46.319 Y72.947 E10.47496
G1 X45.601 Y72.673 E10.49796
G1 X44.916 Y72.326 E10.52095
G1 X44.27 Y71.91 E10.54395
G1 X43.672 Y71.429 E10.56692
G1 X43.264 Y71.037 E10.58386
G1 X42.749 Y70.467 E10.60686
G1 X42.297 Y69.846 E10.62985
G1 X41.912 Y69.181 E10.65285
G1 X41.598 Y68.48 E10.67584
G1 X41.359 Y67.75 E10.69883
G1 X41.197 Y66.999 E10.72183
G1 X41.114 Y66.236 E10.74481
G1 X41.102 Y65.819 E10.75729
G1 X41.102 Y46.029 E11.34969
G1 X41.142 Y45.262 E11.37268
G1 X41.261 Y44.503 E11.39568
G1 X41.459 Y43.761 E11.41867
G1 X41.733 Y43.043 E11.44167
G1 X42.08 Y42.358 E11.46466
G1 X42.496 Y41.712 E11.48766
G1 X42.977 Y41.114 E11.51063
G1 X43.369 Y40.706 E11.52757
G0 F2400 X43.518 Y41.065
G1 F1350 X43.623 Y40.96 E11.53201
G1 X44.18 Y40.459 E11.55444
G1 X44.788 Y40.021 E11.57687
G1 X45.438 Y39.65 E11.59927
G1 X46.125 Y39.35 E11.62171
G1 X46.84 Y39.125 E11.64415
G1 X47.574 Y38.977 E11.66656
G1 X48.587 Y38.904 E11.69697
G1 X68.377 Y38.904 E12.28936
G1 X69.125 Y38.944 E12.31178
G1 X69.865 Y39.063 E12.33422
G1 X70.587 Y39.261 E12.35663
G1 X71.285 Y39.534 E12.37907
G1 X71.949 Y39.881 E12.40149
G1 X72.573 Y40.296 E12.42393
G1 X73.341 Y40.96 E12.45432
G1 X73.446 Y41.065 E12.45876
G1 X73.947 Y41.622 E12.48119
G1 X74.385 Y42.23 E12.50362
G1 X74.756 Y42.88 E12.52602
G1 X75.056 Y43.567 E12.54846
G1 X75.281 Y44.282 E12.5709
G1 X75.429 Y45.016 E12.59331
G1 X75.502 Y46.029 E12.62371
G1 X75.502 Y65.819 E13.21611
G1 X75.462 Y66.567 E13.23853
G1 X75.343 Y67.307 E13.26097
G1 X75.145 Y68.029 E13.28338
G1 X74.872 Y68.727 E13.30581
G1 X74.525 Y69.391 E13.32824
G1 X74.11 Y70.015 E13.35067
G1 X73.446 Y70.783 E13.38106
G1 X73.341 Y70.888 E13.38551
G1 X72.784 Y71.389 E13.40793
G1 X72.176 Y71.827 E13.43037
G1 X71.526 Y72.198 E13.45277
G1 X70.839 Y72.498 E13.47521
G1 X70.124 Y72.723 E13.49765
G1 X69.39 Y72.871 E13.52006
G1 X68.377 Y72.944 E13.55046
G1 X48.587 Y72.944 E14.14286
G1 X47.839 Y72.904 E14.16528
G1 X47.099 Y72.785 E14.18772
G1 X46.377 Y72.587 E14.21013
G1 X45.679 Y72.314 E14.23256
G1 X45.015 Y71.967 E14.25499
G1 X44.391 Y71.552 E14.27742
G1 X43.623 Y70.888 E14.30781
G1 X43.518 Y70.783 E14.31226
G1 X43.017 Y70.226 E14.33468
G1 X42.579 Y69.618 E14.35711
G1 X42.208 Y68.968 E14.37952
G1 X41.908 Y68.281 E14.40196
G1 X41.683 Y67.566 E14.4244
G1 X41.535 Y66.832 E14.44681
G1 X41.462 Y65.819 E14.47721
G1 X41.462 Y46.029 E15.06961
G1 X41.502 Y45.281 E15.09203
G1 X41.621 Y44.541 E15.11447
G1 X41.819 Y43.819 E15.13688
G1 X42.092 Y43.121 E15.15931
G1 X42.439 Y42.457 E15.18174
G1 X42.854 Y41.833 E15.20417
G1 X43.518 Y41.065 E15.23456
G0 F2400 X43.773 Y41.32
G1 F1350 X43.878 Y41.215 E15.23901
G1 X44.421 Y40.728 E15.26084
G1 X45.015 Y40.303 E15.2827
G1 X45.651 Y39.946 E15.30454
G1 X46.322 Y39.661 E15.32636
G1 X47.021 Y39.451 E15.34821
G1 X47.739 Y39.318 E15.37006
G1 X48.587 Y39.264 E15.3955
G1 X68.377 Y39.264 E15.9879
G1 X69.106 Y39.304 E16.00975
G1 X69.825 Y39.423 E16.03157
G1 X70.528 Y39.621 E16.05343
G1 X71.204 Y39.894 E16.07525
G1 X71.847 Y40.239 E16.0971
G1 X72.448 Y40.653 E16.11894
G1 X73.086 Y41.215 E16.14439
G1 X73.191 Y41.32 E16.14884
G1 X73.678 Y41.863 E16.17067
G1 X74.103 Y42.457 E16.19253
G1 X74.46 Y43.093 E16.21437
G1 X74.745 Y43.764 E16.23619
G1 X74.955 Y44.463 E16.25804
G1 X75.088 Y45.181 E16.27989
G1 X75.142 Y46.029 E16.30533
G1 X75.142 Y65.819 E16.89773
G1 X75.102 Y66.548 E16.91958
G1 X74.983 Y67.267 E16.9414
G1 X74.785 Y67.97 E16.96326
G1 X74.512 Y68.646 E16.98508
G1 X74.167 Y69.289 E17.00693
G1 X73.753 Y69.89 E17.02877
G1 X73.191 Y70.528 E17.05422
G1 X73.086 Y70.633 E17.05867
G1 X72.543 Y71.12 E17.0805
G1 X71.949 Y71.545 E17.10236
G1 X71.313 Y71.902 E17.1242
G1 X70.642 Y72.187 E17.14602
G1 X69.943 Y72.397 E17.16787
G1 X69.225 Y72.53 E17.18973
G1 X68.377 Y72.584 E17.21516
G1 X48.587 Y72.584 E17.80756
G1 X47.858 Y72.544 E17.82941
G1 X47.139 Y72.425 E17.85123
G1 X46.436 Y72.227 E17.87309
G1 X45.76 Y71.954 E17.89491
G1 X45.117 Y71.609 E17.91676
G1 X44.516 Y71.195 E17.9386
G1 X43.878 Y70.633 E17.96405
G1 X43.773 Y70.528 E17.9685
G1 X43.286 Y69.985 E17.99033
G1 X42.861 Y69.391 E18.0122
G1 X42.504 Y68.755 E18.03403
G1 X42.219 Y68.084 E18.05585
G1 X42.009 Y67.385 E18.0777
G1 X41.876 Y66.667 E18.09956
G1 X41.822 Y65.819 E18.12499
G1 X41.822 Y46.029 E18.71739
G1 X41.862 Y45.3 E18.73924
G1 X41.981 Y44.581 E18.76106
G1 X42.179 Y43.878 E18.78292
G1 X42.452 Y43.202 E18.80474
G1 X42.797 Y42.559 E18.82659
G1 X43.211 Y41.958 E18.84843
G1 X43.773 Y41.32 E18.87388
G0 F2400 X44.027 Y41.574
G1 F1350 X44.132 Y41.469 E18.87833
G1 X44.661 Y40.996 E18.89957
G1 X45.241 Y40.586 E18.92083
G1 X45.862 Y40.244 E18.94205
G1 X46.518 Y39.973 E18.9633
G1 X47.201 Y39.778 E18.98456
G1 X47.9 Y39.662 E19.00577
G1 X48.587 Y39.624 E19.02637
G1 X68.377 Y39.624 E19.61876
G1 X69.086 Y39.664 E19.64002
G1 X69.785 Y39.783 E19.66125
G1 X70.467 Y39.981 E19.6825
G1 X71.122 Y40.253 E19.70374
G1 X71.742 Y40.598 E19.72497
G1 X72.32 Y41.01 E19.74622
G1 X72.832 Y41.469 E19.76681
G1 X72.937 Y41.574 E19.77125
G1 X73.41 Y42.103 E19.79249
G1 X73.82 Y42.683 E19.81375
G1 X74.162 Y43.304 E19.83498
G1 X74.433 Y43.96 E19.85622
G1 X74.628 Y44.643 E19.87748
G1 X74.744 Y45.342 E19.89869
G1 X74.782 Y46.029 E19.91929
G1 X74.782 Y65.819 E20.51169
G1 X74.742 Y66.528 E20.53294
G1 X74.623 Y67.227 E20.55417
G1 X74.425 Y67.909 E20.57543
G1 X74.153 Y68.564 E20.59666
G1 X73.808 Y69.184 E20.6179
G1 X73.396 Y69.762 E20.63914
G1 X72.937 Y70.274 E20.65973
G1 X72.832 Y70.379 E20.66417
G1 X72.303 Y70.852 E20.68541
G1 X71.723 Y71.262 E20.70668
G1 X71.102 Y71.604 E20.7279
G1 X70.446 Y71.875 E20.74914
G1 X69.763 Y72.07 E20.77041
G1 X69.064 Y72.186 E20.79162
G1 X68.377 Y72.224 E20.81221
G1 X48.587 Y72.224 E21.40461
G1 X47.878 Y72.184 E21.42586
G1 X47.179 Y72.065 E21.44709
G1 X46.497 Y71.867 E21.46835
G1 X45.842 Y71.595 E21.48958
G1 X45.222 Y71.25 E21.51082
G1 X44.644 Y70.838 E21.53206
G1 X44.132 Y70.379 E21.55265
G1 X44.027 Y70.274 E21.55709
G1 X43.554 Y69.745 E21.57834
G1 X43.144 Y69.165 E21.5996
G1 X42.802 Y68.544 E21.62082
G1 X42.531 Y67.888 E21.64206
G1 X42.336 Y67.205 E21.66333
G1 X42.22 Y66.506 E21.68454
G1 X42.182 Y65.819 E21.70513
G1 X42.182 Y46.029 E22.29753
G1 X42.222 Y45.32 E22.31879
G1 X42.341 Y44.621 E22.34001
G1 X42.539 Y43.939 E22.36127
G1 X42.811 Y43.284 E22.3825
G1 X43.156 Y42.664 E22.40374
G1 X43.568 Y42.086 E22.42499
G1 X44.027 Y41.574 E22.44557
G0 F2400 X44.282 Y41.829
G1 F1350 X44.387 Y41.724 E22.45001
G1 X44.901 Y41.266 E22.47062
G1 X45.466 Y40.87 E22.49128
G1 X46.072 Y40.543 E22.51189
G1 X46.712 Y40.288 E22.53251
G1 X47.377 Y40.108 E22.55313
G1 X48.059 Y40.008 E22.57377
G1 X48.587 Y39.984 E22.58959
G1 X68.377 Y39.984 E23.18198
G1 X69.065 Y40.024 E23.20261
G1 X69.744 Y40.143 E23.22325
G1 X70.404 Y40.34 E23.24387
G1 X71.037 Y40.613 E23.2645
G1 X71.634 Y40.957 E23.28513
G1 X72.187 Y41.367 E23.30573
G1 X72.577 Y41.724 E23.32156
G1 X72.682 Y41.829 E23.32601
G1 X73.14 Y42.343 E23.34661
G1 X73.536 Y42.908 E23.36727
G1 X73.863 Y43.514 E23.38788
G1 X74.118 Y44.154 E23.4085
G1 X74.298 Y44.819 E23.42913
G1 X74.398 Y45.501 E23.44976
G1 X74.422 Y46.029 E23.46558
G1 X74.422 Y65.819 E24.05798
G1 X74.382 Y66.507 E24.07861
G1 X74.263 Y67.186 E24.09924
G1 X74.066 Y67.846 E24.11986
G1 X73.793 Y68.479 E24.14049
G1 X73.449 Y69.076 E24.16112
G1 X73.039 Y69.629 E24.18173
G1 X72.682 Y70.019 E24.19755
G1 X72.577 Y70.124 E24.202
G1 X72.063 Y70.582 E24.22261
G1 X71.498 Y70.978 E24.24326
G1 X70.892 Y71.305 E24.26387
G1 X70.252 Y71.56 E24.28449
G1 X69.587 Y71.74 E24.30512
G1 X68.905 Y71.84 E24.32575
G1 X68.377 Y71.864 E24.34157
G1 X48.587 Y71.864 E24.93397
G1 X47.899 Y71.824 E24.9546
G1 X47.22 Y71.705 E24.97523
G1 X46.56 Y71.508 E24.99585
G1 X45.927 Y71.235 E25.01649
G1 X45.33 Y70.891 E25.03711
G1 X44.777 Y70.481 E25.05772
G1 X44.387 Y70.124 E25.07354
G1 X44.282 Y70.019 E25.07799
G1 X43.824 Y69.505 E25.0986
G1 X43.428 Y68.94 E25.11925
G1 X43.101 Y68.334 E25.13986
G1 X42.846 Y67.694 E25.16049
G1 X42.666 Y67.029 E25.18111
G1 X42.566 Y66.347 E25.20174
G1 X42.542 Y65.819 E25.21756
G1 X42.542 Y46.029 E25.80996
G1 X42.582 Y45.341 E25.83059
G1 X42.701 Y44.662 E25.85122
G1 X42.898 Y44.002 E25.87184
G1 X43.171 Y43.369 E25.89248
G1 X43.515 Y42.772 E25.9131
G1 X43.925 Y42.219 E25.93371
G1 X44.282 Y41.829 E25.94954
G0 F2400 X44.641 Y41.978
G1 F1350 X45.141 Y41.535 E25.96953
G1 X45.69 Y41.155 E25.98952
G1 X46.28 Y40.843 E26.0095
G1 X46.904 Y40.604 E26.0295
G1 X47.552 Y40.441 E26.0495
G1 X48.214 Y40.356 E26.06948
G1 X48.587 Y40.344 E26.08065
G1 X68.377 Y40.344 E26.67305
G1 X69.044 Y40.384 E26.69305
G1 X69.701 Y40.503 E26.71304
G1 X70.339 Y40.7 E26.73302
G1 X70.949 Y40.972 E26.75302
G1 X71.522 Y41.315 E26.77301
G1 X72.05 Y41.724 E26.793
G1 X72.428 Y42.083 E26.80861
G1 X72.871 Y42.583 E26.8286
G1 X73.251 Y43.132 E26.84859
G1 X73.563 Y43.722 E26.86857
G1 X73.802 Y44.346 E26.88857
G1 X73.965 Y44.994 E26.90857
G1 X74.05 Y45.656 E26.92855
G1 X74.062 Y46.029 E26.93972
G1 X74.062 Y65.819 E27.53212
G1 X74.022 Y66.486 E27.55212
G1 X73.903 Y67.143 E27.57211
G1 X73.706 Y67.781 E27.59209
G1 X73.434 Y68.391 E27.61209
G1 X73.091 Y68.964 E27.63208
G1 X72.682 Y69.492 E27.65207
G1 X72.323 Y69.87 E27.66767
G1 X71.823 Y70.313 E27.68767
G1 X71.274 Y70.693 E27.70766
G1 X70.684 Y71.005 E27.72764
G1 X70.06 Y71.244 E27.74764
G1 X69.412 Y71.407 E27.76764
G1 X68.75 Y71.492 E27.78762
G1 X68.377 Y71.504 E27.79879
G1 X48.587 Y71.504 E28.39119
G1 X47.92 Y71.464 E28.41119
G1 X47.263 Y71.345 E28.43117
G1 X46.625 Y71.148 E28.45116
G1 X46.015 Y70.876 E28.47116
G1 X45.442 Y70.533 E28.49115
G1 X44.914 Y70.124 E28.51114
G1 X44.536 Y69.765 E28.52674
G1 X44.093 Y69.265 E28.54674
G1 X43.713 Y68.716 E28.56673
G1 X43.401 Y68.126 E28.5867
G1 X43.162 Y67.502 E28.60671
G1 X42.999 Y66.854 E28.62671
G1 X42.914 Y66.192 E28.64669
G1 X42.902 Y65.819 E28.65786
G1 X42.902 Y46.029 E29.25026
G1 X42.942 Y45.362 E29.27026
G1 X43.061 Y44.705 E29.29024
G1 X43.258 Y44.067 E29.31023
G1 X43.53 Y43.457 E29.33022
G1 X43.873 Y42.884 E29.35021
G1 X44.282 Y42.356 E29.37021
G1 X44.641 Y41.978 E29.38581
G0 F2400 X44.791 Y42.338
G1 F1350 X44.896 Y42.233 E29.39026
G1 X45.38 Y41.805 E29.4096
G1 X45.913 Y41.441 E29.42892
G1 X46.487 Y41.145 E29.44825
G1 X47.094 Y40.922 E29.46761
G1 X47.723 Y40.776 E29.48694
G1 X48.587 Y40.704 E29.51289
G1 X68.377 Y40.704 E30.10529
G1 X69.022 Y40.744 E30.12463
G1 X69.656 Y40.863 E30.14394
